<?xml version="1.0" encoding="UTF-8"?>
<map version="1.10" tiledversion="1.10.2" orientation="orthogonal" renderorder="right-down" width="64" height="36" tilewidth="20" tileheight="20" infinite="0" nextlayerid="7" nextobjectid="249">
 <tileset firstgid="1" source="viking.tsx"/>
 <layer id="1" name="background" width="64" height="36" opacity="0.9">
  <data encoding="csv">
100,100,100,100,100,100,100,100,100,100,100,100,100,100,100,100,100,100,100,100,100,100,100,100,100,100,100,100,100,100,100,100,100,100,100,100,100,100,100,100,100,100,100,100,100,100,100,100,100,100,100,100,100,100,100,100,100,100,100,100,100,100,100,100,
100,100,100,100,100,100,100,100,100,100,100,100,100,100,100,100,100,100,100,100,100,100,100,100,100,100,100,100,100,100,100,100,100,100,100,100,100,100,100,100,100,100,100,100,100,100,100,100,100,100,100,100,100,100,100,100,100,100,100,100,100,100,100,100,
100,100,100,100,100,100,100,100,6,100,100,100,100,100,100,100,100,100,100,100,100,100,100,100,100,100,100,100,100,100,6,100,100,6,100,100,6,100,100,100,100,100,100,100,100,100,100,100,100,100,100,100,100,100,100,100,100,100,100,100,100,100,100,100,
100,100,100,100,100,100,100,100,100,100,100,100,100,100,100,100,100,100,100,100,100,100,100,100,100,100,100,100,100,100,6,100,100,100,100,100,6,100,100,100,100,100,100,100,100,100,100,100,100,6,100,100,100,100,100,100,100,100,100,100,100,100,100,100,
100,100,100,100,6,100,100,100,100,100,100,100,100,100,100,100,100,100,100,100,6,6,100,100,100,100,100,100,100,100,100,100,100,100,100,100,100,100,100,100,100,100,100,100,100,100,100,100,100,6,6,100,100,100,100,100,100,100,100,100,100,100,100,100,
100,100,100,100,100,100,100,100,100,100,100,100,100,100,100,100,100,100,100,100,100,100,100,100,100,100,100,100,100,100,100,100,100,100,100,100,100,100,100,100,100,100,100,100,100,100,100,100,100,100,100,100,100,100,100,100,100,100,100,100,100,6,100,100,
100,100,100,100,100,100,100,6,100,100,100,100,100,6,6,100,100,100,100,100,100,100,100,100,100,100,100,100,100,6,6,100,100,6,6,100,100,100,100,100,100,100,100,100,100,100,100,100,100,100,100,100,100,100,100,100,6,6,6,6,100,6,100,100,
100,100,100,100,100,100,100,100,100,100,100,100,100,6,6,100,100,6,6,100,100,100,100,100,100,100,100,100,100,6,6,100,100,100,6,6,6,100,6,100,100,100,100,100,100,100,100,100,100,100,100,100,100,100,100,100,100,100,100,100,100,100,100,100,
100,100,100,6,100,100,100,100,100,100,100,100,100,100,100,100,100,6,6,100,100,100,100,6,6,6,100,100,100,100,100,100,100,100,100,100,100,100,6,100,100,100,100,100,100,100,100,100,100,6,6,6,6,100,100,100,100,100,100,100,100,100,100,100,
100,6,6,6,100,100,100,100,100,100,100,100,100,100,100,100,100,100,100,100,100,100,100,100,100,100,100,100,100,100,100,100,100,100,100,100,100,100,6,100,100,100,100,100,100,100,100,100,100,100,100,100,100,100,100,100,100,100,100,6,100,100,100,100,
100,100,100,100,100,100,100,100,100,100,100,100,100,100,100,100,100,100,100,100,100,100,100,100,100,100,100,100,100,100,100,100,100,100,100,100,100,100,6,6,6,6,100,100,100,100,100,100,100,100,100,100,100,100,100,100,100,100,100,100,100,100,100,100,
100,100,100,100,100,100,100,100,6,100,100,100,100,100,100,100,100,100,100,100,100,100,100,100,100,100,100,100,100,100,100,100,100,100,100,100,100,100,100,100,100,100,100,100,100,100,100,100,100,100,100,100,100,100,100,100,100,100,100,100,100,100,100,100,
100,100,100,100,100,100,100,100,6,100,100,6,100,100,100,100,100,100,100,100,100,100,100,100,100,6,6,100,100,100,100,100,6,6,100,100,100,100,100,100,100,100,100,100,100,100,100,100,100,100,100,100,100,100,100,100,100,100,100,6,6,100,100,100,
100,100,100,100,100,100,100,100,100,100,100,100,100,100,100,100,100,100,6,6,6,6,100,100,100,6,100,100,100,100,100,100,6,100,100,100,100,100,100,100,100,100,100,6,6,100,100,100,100,100,100,100,100,100,100,100,100,100,100,6,100,100,100,100,
100,100,100,6,6,6,100,100,100,100,100,100,100,100,100,100,100,100,100,100,6,100,100,100,100,100,100,100,100,100,100,100,100,100,100,100,100,100,100,100,100,100,100,100,6,100,100,100,100,100,100,100,100,100,100,100,100,100,100,6,100,100,100,100,
100,100,100,100,100,100,100,100,100,100,6,100,100,100,100,100,100,100,100,100,100,100,100,100,100,100,100,100,100,100,100,100,100,100,100,100,100,100,100,100,100,100,100,100,6,100,100,100,100,100,100,100,100,100,100,100,100,100,100,100,100,100,100,100,
100,100,100,100,100,100,100,100,100,100,100,100,100,100,6,100,100,100,100,100,100,100,100,100,100,100,100,100,6,100,100,100,100,100,100,100,100,100,100,100,100,100,100,100,6,100,100,100,100,100,100,100,100,100,100,100,100,100,100,100,100,100,100,100,
100,100,100,100,100,100,100,100,100,100,100,100,100,100,6,100,100,100,100,100,100,100,100,100,100,100,100,100,6,100,100,6,6,6,6,100,100,100,100,100,100,100,100,100,6,100,100,100,100,100,100,100,100,100,100,100,100,100,100,100,100,100,6,100,
100,100,100,100,100,100,100,100,100,100,100,100,100,100,100,100,100,100,100,100,100,100,100,100,100,6,6,6,100,100,100,6,100,100,6,100,100,100,100,100,100,100,100,100,100,100,100,100,100,100,100,100,100,100,100,100,100,100,100,100,100,6,6,100,
100,100,100,100,100,100,100,100,100,100,100,6,100,100,100,100,100,100,6,6,6,100,100,100,100,6,6,6,100,100,100,100,100,100,100,100,100,100,100,100,100,100,100,100,100,100,100,100,100,100,100,100,100,100,100,100,100,100,100,100,100,100,100,100,
100,100,100,100,100,100,100,100,100,100,100,100,100,100,6,100,100,100,100,100,100,100,100,100,100,6,6,6,100,100,100,100,100,100,100,100,100,100,100,100,100,100,100,100,100,100,100,100,100,100,100,100,100,100,100,100,100,100,100,100,100,100,100,100,
100,6,6,6,100,100,100,6,6,6,100,100,100,100,6,100,100,100,100,100,100,100,100,100,100,6,6,6,100,100,100,100,100,100,100,100,100,100,100,100,100,100,100,100,100,100,100,100,100,100,100,100,100,6,6,6,6,6,6,100,100,100,100,100,
100,100,100,100,100,100,100,100,100,6,100,100,100,100,100,100,100,100,100,100,6,6,6,100,100,100,100,100,100,100,100,100,100,100,100,100,100,100,100,100,100,100,100,100,100,100,100,100,100,100,100,100,100,100,100,100,100,6,6,100,100,100,100,100,
100,100,100,100,100,100,100,100,100,100,100,100,100,100,100,100,100,100,100,100,100,100,100,100,100,100,100,100,100,100,100,100,100,100,100,100,100,6,6,6,100,100,100,100,100,100,100,100,100,100,100,100,100,100,100,100,100,100,100,100,100,100,100,100,
100,100,100,100,100,100,100,100,100,100,100,100,100,100,100,100,100,100,100,100,100,100,100,100,100,100,100,100,100,100,100,100,100,100,100,100,100,100,100,100,100,100,100,100,100,100,100,100,100,100,100,100,100,100,100,100,100,100,100,100,100,100,100,100,
100,100,100,100,100,100,100,100,100,100,100,100,100,100,100,100,100,100,100,100,100,100,100,100,100,100,100,100,100,100,100,100,6,100,100,100,100,100,100,100,100,100,100,100,100,100,100,100,100,100,100,100,100,100,100,100,100,100,100,100,6,6,100,100,
100,100,100,6,6,6,100,100,100,100,100,100,100,100,100,100,100,100,100,100,100,100,100,100,100,100,100,6,6,6,100,100,100,100,100,100,100,100,100,100,100,100,100,100,100,100,100,6,100,100,100,100,100,6,6,100,100,100,100,6,6,100,100,100,
100,100,100,100,100,100,100,100,100,100,100,100,100,100,100,100,100,100,100,6,100,100,100,100,100,100,100,100,100,100,100,100,100,100,100,100,100,100,100,100,100,100,100,100,100,100,100,6,100,100,100,100,100,100,6,100,100,100,100,100,100,100,100,100,
100,100,100,100,100,100,100,100,100,100,100,100,6,6,6,100,100,100,100,6,6,6,100,100,100,100,100,100,100,100,100,100,100,100,100,100,100,100,100,100,6,100,100,100,100,100,100,100,100,100,100,100,100,100,100,100,100,100,100,100,100,100,100,100,
100,100,100,100,100,100,100,100,6,100,100,100,100,100,100,100,100,100,100,100,100,100,100,100,100,100,100,100,6,100,100,100,100,100,100,100,100,100,100,100,6,100,100,100,100,100,100,100,100,100,100,100,100,100,100,6,100,100,100,100,100,100,100,100,
100,100,100,100,100,100,100,100,6,100,100,100,100,100,100,100,100,100,100,100,100,100,100,100,100,100,100,6,6,100,100,100,100,100,100,100,100,100,100,100,100,100,100,100,100,100,100,100,100,100,100,100,6,100,100,100,100,100,100,100,100,100,100,100,
100,100,100,100,100,100,100,100,100,100,100,100,100,100,6,100,100,100,100,100,6,100,100,100,100,100,100,100,100,100,100,100,100,100,100,100,100,100,100,100,100,100,100,100,100,100,100,100,100,100,100,100,6,100,100,100,100,6,6,6,100,100,100,100,
100,100,100,100,100,100,100,100,100,100,100,100,100,100,6,100,100,100,100,100,100,100,100,100,100,100,100,100,100,100,100,100,100,100,100,100,100,100,100,100,100,100,6,6,6,100,100,100,100,100,100,100,100,100,100,100,100,6,100,100,100,100,100,100,
100,100,100,100,100,100,100,100,100,100,100,100,100,100,6,100,100,100,100,100,100,100,100,100,100,100,100,100,100,100,100,100,100,100,100,6,6,100,100,100,100,100,6,6,6,100,100,100,100,100,100,100,100,100,6,100,100,100,100,100,100,100,100,100,
100,100,100,100,100,100,100,100,100,100,100,100,100,100,100,100,100,100,100,100,100,100,100,100,100,100,100,100,100,100,100,100,100,100,100,100,100,100,100,100,100,100,100,100,100,100,100,100,100,100,100,100,100,100,100,100,100,100,100,100,100,100,100,100,
100,100,100,100,100,100,100,100,100,100,100,100,100,100,100,100,100,100,100,100,100,100,100,100,100,100,100,100,100,100,100,100,100,100,100,100,100,100,100,100,100,100,100,100,100,100,100,100,100,100,100,100,100,100,100,100,100,100,100,100,100,100,100,100
</data>
 </layer>
 <layer id="3" name="walls" width="64" height="36">
  <data encoding="csv">
2,2,2,2,2,2,2,2,2,2,2,2,2,2,2,2,2,2,2,2,2,2,2,2,2,2,2,2,2,2,2,2,2,2,2,2,2,2,2,2,2,2,2,2,2,2,2,2,2,2,2,2,2,2,2,2,2,2,2,2,2,2,2,2,
2,0,0,0,0,0,2,139,139,139,139,139,139,139,137,2,139,139,139,139,139,139,2,139,139,2,139,137,137,139,139,139,139,2,139,139,139,139,139,139,139,139,139,139,2,139,139,139,139,139,139,139,2,139,139,139,2,139,139,139,139,139,139,2,
2,139,139,0,0,0,2,139,139,139,0,139,139,139,137,2,139,139,139,2,2,2,2,139,139,2,139,139,139,139,139,139,139,139,139,139,139,139,139,0,139,139,139,139,2,2,2,2,139,139,139,139,2,139,139,139,2,139,139,139,139,139,139,2,
2,139,139,0,2,2,2,139,139,139,2,2,2,2,2,2,139,139,139,139,139,139,2,139,139,2,139,139,139,139,139,139,139,139,139,139,139,139,139,2,139,139,139,139,2,139,139,139,139,139,139,139,2,139,139,139,2,2,2,2,2,0,139,2,
2,139,139,139,139,139,0,139,139,139,139,139,139,139,139,2,139,139,139,139,139,139,2,139,139,2,2,2,2,2,2,2,2,2,2,2,2,2,2,2,139,139,139,139,139,139,139,139,139,139,139,139,2,139,139,139,2,139,139,135,139,139,139,2,
2,139,139,139,139,139,139,139,139,139,139,139,139,139,139,2,2,2,2,139,139,139,2,139,139,2,139,139,139,139,139,139,139,139,139,139,2,139,139,139,139,139,139,139,139,139,139,139,139,139,139,139,2,139,139,139,2,139,139,139,139,139,139,2,
2,0,0,2,2,2,2,139,139,139,2,2,139,139,139,2,139,139,139,139,139,139,2,139,139,2,139,139,139,139,139,139,139,139,139,139,2,139,139,139,139,139,139,139,139,139,2,139,139,139,2,2,2,2,2,2,2,139,139,139,139,139,2,2,
2,139,139,139,139,139,2,139,139,139,2,2,139,139,139,2,139,139,139,139,139,139,139,139,139,2,139,139,139,139,139,139,139,139,139,139,2,139,139,139,139,2,2,2,2,2,2,139,139,139,139,139,139,2,139,139,2,139,139,139,139,139,139,2,
2,139,139,139,139,139,2,139,139,139,139,139,139,139,139,2,139,139,139,139,2,139,139,139,139,139,139,139,139,139,139,139,139,139,139,139,139,139,139,139,139,139,139,2,139,139,2,139,139,139,139,139,139,2,139,139,2,139,139,139,139,100,139,2,
2,139,139,139,139,139,2,139,139,139,139,139,139,139,139,2,139,139,139,139,2,139,139,139,139,139,139,139,139,139,139,139,2,2,139,139,139,139,139,139,139,139,139,2,139,139,2,139,139,139,139,139,139,2,139,139,2,139,139,100,139,135,139,2,
2,139,139,139,139,139,2,139,139,139,2,2,2,2,2,2,139,139,139,139,2,139,139,139,139,139,139,2,2,2,139,139,2,2,139,139,139,139,139,139,139,139,139,2,139,139,2,139,139,139,139,139,139,2,139,139,2,139,139,2,2,2,2,2,
2,139,139,139,139,139,2,139,139,139,139,139,139,139,139,2,2,2,2,2,2,2,2,2,2,139,139,139,139,2,139,139,139,139,139,139,2,139,139,139,139,139,139,2,139,139,2,139,139,139,139,139,139,2,139,139,2,139,139,139,139,139,139,2,
2,139,139,139,139,139,2,139,139,139,139,139,139,139,139,2,139,139,139,139,139,139,139,2,139,139,139,139,139,2,139,139,139,139,139,139,2,139,139,139,139,139,139,139,139,139,2,2,2,2,2,139,139,2,139,139,2,139,139,139,139,139,139,2,
2,139,139,139,139,139,2,2,2,139,139,139,139,139,139,2,139,139,139,139,139,139,139,2,139,139,139,139,139,2,139,139,139,139,139,139,2,139,139,139,139,139,139,139,139,139,2,139,139,139,2,139,139,2,139,139,139,139,139,139,139,139,139,2,
2,139,139,139,139,139,2,139,139,139,139,139,2,139,139,139,139,139,139,139,139,139,139,2,139,139,139,139,139,2,139,139,139,139,139,139,2,139,139,139,2,2,139,139,139,139,2,139,139,137,2,139,139,2,139,139,139,139,139,139,139,139,139,2,
2,139,139,139,139,139,2,139,139,139,139,139,2,139,139,139,139,139,139,139,139,139,139,2,2,2,2,139,139,2,2,2,2,2,139,139,2,139,139,139,2,2,139,139,139,139,2,139,139,137,2,139,139,2,139,139,2,2,2,2,2,2,2,2,
2,139,139,139,139,139,2,139,139,139,139,139,2,139,139,139,139,2,139,139,2,2,2,2,139,139,139,139,139,2,139,139,139,139,139,139,2,139,139,139,139,139,139,139,139,139,2,139,139,2,2,139,139,2,139,139,139,139,139,2,139,139,139,2,
2,139,139,139,139,139,2,139,139,2,139,139,2,139,139,139,139,2,139,139,139,139,2,139,139,139,139,139,139,2,139,139,139,139,139,139,2,139,139,139,139,139,139,139,139,139,2,139,139,139,139,139,139,2,139,139,139,139,139,2,139,139,139,2,
2,139,139,139,139,139,2,2,2,2,139,139,2,2,2,139,139,2,139,139,139,139,2,139,139,139,139,139,139,2,139,139,139,139,139,139,2,139,139,139,139,139,139,139,139,139,2,139,139,139,139,139,139,139,139,139,139,139,139,2,139,139,139,2,
2,139,139,139,139,139,2,139,139,139,139,139,2,139,139,139,139,2,139,139,139,139,2,139,139,139,139,139,139,2,139,139,139,139,139,139,2,2,2,2,2,2,2,2,2,2,2,2,2,2,2,139,139,139,139,139,2,2,2,2,139,139,139,2,
2,139,139,139,139,139,2,139,139,139,139,139,2,139,139,139,139,2,139,139,139,139,2,139,139,139,139,139,139,2,139,139,2,2,139,139,2,139,139,139,139,139,139,139,2,139,139,139,139,139,139,139,139,139,139,139,139,139,139,2,139,139,139,2,
2,139,139,139,139,139,2,139,139,139,139,139,2,139,139,2,2,2,139,139,139,139,2,139,139,139,139,139,139,2,139,139,2,2,139,139,2,139,139,139,139,139,139,137,2,139,139,139,139,139,139,139,139,139,139,139,139,139,139,2,139,139,139,2,
2,139,139,139,139,139,2,139,139,139,139,139,139,139,139,139,139,2,139,139,139,139,139,139,139,139,139,139,139,139,139,139,139,139,139,139,2,139,139,139,139,2,139,137,2,139,139,139,139,139,2,139,139,139,139,139,139,139,139,2,139,139,139,2,
2,139,139,139,139,139,2,139,139,139,139,139,139,139,139,139,139,2,139,139,139,139,139,139,139,139,139,139,139,139,139,139,139,139,139,139,2,139,139,100,139,2,2,2,2,139,139,139,139,139,2,139,139,139,2,2,139,139,139,2,2,2,139,2,
2,139,139,139,139,139,2,2,2,2,2,2,2,2,2,2,2,2,2,2,139,139,139,139,139,2,2,2,2,2,139,139,2,2,2,2,2,139,139,139,139,139,139,139,2,139,139,2,2,2,2,139,139,139,2,2,139,139,139,139,139,139,139,2,
2,139,139,139,139,139,2,139,139,139,139,139,139,139,2,139,139,2,139,139,139,139,139,139,139,2,139,139,139,2,139,139,139,139,139,139,2,139,139,139,139,139,139,139,2,139,139,139,139,139,2,139,139,139,139,139,139,139,139,139,139,139,139,2,
2,139,139,139,139,139,2,139,139,139,139,139,139,139,2,139,139,2,139,139,139,139,2,2,2,2,2,139,139,139,139,139,139,139,139,139,139,139,139,2,2,2,139,139,2,139,139,139,139,139,2,139,139,139,139,139,139,139,139,139,139,139,139,2,
2,139,139,139,139,139,2,2,2,2,2,139,139,139,2,139,139,2,139,139,139,139,139,139,139,2,139,139,139,139,139,139,139,139,139,139,139,139,139,2,2,2,139,139,139,139,139,139,139,139,2,139,139,139,139,139,139,139,139,139,139,139,139,2,
2,139,139,139,139,139,2,139,139,139,2,139,139,139,139,139,139,2,139,139,139,139,139,139,139,2,139,139,2,2,2,2,2,2,2,2,2,139,139,139,139,139,139,139,139,139,2,2,2,2,2,139,139,139,2,2,2,2,2,2,2,2,2,2,
2,139,139,139,139,139,2,139,139,139,139,139,139,139,139,139,139,2,139,139,139,139,139,139,139,2,139,139,139,139,139,139,2,139,139,139,139,139,139,139,139,139,139,0,139,139,2,139,139,139,139,139,139,139,139,139,139,139,139,139,139,139,139,2,
2,139,139,139,139,139,2,139,139,139,139,139,139,2,2,2,2,2,2,2,2,2,2,2,2,2,139,139,139,139,139,139,2,139,139,139,139,139,139,139,139,139,139,2,139,139,2,139,139,139,139,139,139,139,139,139,139,139,139,139,122,122,122,2,
2,139,139,139,139,139,2,139,139,139,139,139,139,139,139,139,139,2,139,139,139,139,139,139,139,139,139,139,139,139,139,139,2,2,2,2,2,2,2,2,2,2,2,2,139,139,2,139,139,139,139,139,139,139,139,139,139,139,139,139,122,122,122,2,
2,139,139,139,139,139,2,139,139,2,2,2,139,139,139,139,139,2,139,139,139,139,139,139,139,139,139,2,139,139,139,139,2,139,139,139,139,139,2,139,139,139,139,139,139,139,2,2,2,2,2,2,2,2,2,2,0,0,139,139,122,122,122,2,
2,139,139,139,139,139,2,139,139,0,0,2,139,139,139,139,139,139,139,139,139,139,139,2,2,2,2,2,139,139,2,2,2,139,139,139,139,139,2,139,139,139,139,139,139,139,2,0,0,0,0,0,0,0,0,0,0,0,139,139,122,122,122,122,
2,139,139,139,139,139,2,139,139,139,137,2,139,139,139,139,139,139,139,139,2,139,139,139,2,139,139,139,139,139,139,139,139,139,139,139,139,139,2,139,139,139,139,139,139,139,2,139,139,139,0,0,0,0,0,139,139,139,139,139,122,122,122,122,
2,2,2,2,2,2,2,2,2,2,2,2,2,2,2,2,2,2,2,2,2,2,2,2,2,2,2,2,2,2,2,2,2,2,2,2,2,2,2,2,2,2,2,2,2,2,2,2,2,2,2,2,2,2,2,2,2,2,2,2,2,122,122,122
</data>
 </layer>
 <layer id="4" name="statue" width="64" height="36">
  <data encoding="csv">
0,0,0,0,0,0,0,0,0,0,0,0,0,0,0,0,0,0,0,0,0,0,0,0,0,0,0,0,0,0,0,0,0,0,0,0,0,0,0,0,0,0,0,0,0,0,0,0,0,0,0,0,0,0,0,0,0,0,0,0,0,0,0,0,
0,0,0,0,0,0,0,0,0,0,0,0,0,0,43,0,0,0,0,0,0,0,0,0,0,0,0,0,0,0,0,0,0,0,0,0,0,0,0,0,0,0,0,0,0,0,0,0,0,0,0,0,0,0,0,0,0,43,0,0,0,0,0,0,
0,0,0,0,0,0,0,0,0,0,0,0,0,0,59,0,0,0,0,0,0,0,0,0,0,0,43,0,0,0,0,0,0,0,0,0,0,0,0,0,0,0,0,0,0,0,0,0,0,0,0,0,0,0,0,0,0,59,0,0,0,0,0,0,
0,0,0,0,0,0,0,0,0,0,0,0,0,0,0,0,0,0,0,0,0,0,0,0,0,0,59,0,0,0,0,0,0,0,0,0,0,0,0,0,0,0,0,0,0,0,0,0,0,0,0,0,0,0,0,0,0,0,0,0,0,0,0,0,
0,0,0,0,0,0,0,0,0,0,0,0,0,0,0,0,0,0,0,0,0,0,0,0,0,0,0,0,0,0,0,0,0,0,0,0,0,0,0,0,0,0,0,0,0,0,0,0,0,0,0,0,0,0,0,0,0,0,0,0,0,0,0,0,
0,0,0,0,0,0,0,0,0,0,0,0,0,0,0,0,0,0,0,0,0,0,0,0,0,0,0,0,0,0,0,0,0,0,0,0,0,0,0,0,0,0,0,0,0,0,0,0,0,0,0,0,0,0,0,0,0,0,0,0,0,0,0,0,
0,0,0,0,0,0,0,0,0,0,0,0,0,0,0,0,0,0,0,0,0,0,0,0,0,0,0,0,0,0,0,0,0,0,0,0,0,0,0,0,0,0,0,0,0,0,0,0,0,0,0,0,0,0,0,0,0,0,0,0,0,0,0,0,
0,0,0,0,0,0,0,0,0,0,0,0,0,0,0,0,0,0,0,0,0,0,0,0,0,0,0,0,0,0,0,0,0,0,0,0,0,0,0,0,0,0,0,0,0,0,0,0,0,0,0,0,0,0,0,0,0,0,0,0,0,0,0,0,
0,0,0,0,0,0,0,0,0,0,0,0,0,0,0,0,0,0,0,0,0,0,0,0,0,0,0,0,0,0,0,0,0,0,0,0,0,0,0,0,0,0,0,0,0,0,0,0,0,0,0,0,0,0,0,0,0,0,0,0,0,0,0,0,
0,0,0,0,0,0,0,0,0,0,0,0,0,0,0,0,0,0,0,0,0,0,0,0,0,0,0,0,0,0,0,0,0,0,0,0,0,0,0,0,0,0,0,0,0,0,0,0,0,0,0,0,0,0,0,0,0,0,0,0,0,0,0,0,
0,0,0,0,0,0,0,0,0,0,0,0,0,0,0,0,0,0,0,0,0,0,0,0,0,0,0,0,0,0,0,0,0,0,0,0,0,0,0,0,0,0,0,0,0,0,0,0,0,0,0,0,0,0,0,0,0,0,0,0,0,0,0,0,
0,0,0,0,0,0,0,0,0,0,0,0,0,0,0,0,0,0,0,0,0,0,0,0,0,0,0,0,0,0,0,0,0,0,0,0,0,0,0,0,0,0,0,0,0,0,0,0,0,0,0,0,0,0,0,0,0,0,0,0,0,0,0,0,
0,0,0,0,0,0,0,0,0,0,0,0,0,0,0,0,0,0,0,0,0,0,0,0,0,0,0,0,0,0,0,0,0,0,0,0,0,0,0,0,0,0,0,0,0,0,0,0,0,0,0,0,0,0,0,0,0,0,0,0,0,0,0,0,
0,0,0,0,0,0,0,0,0,0,0,0,0,0,0,0,0,0,0,0,0,0,0,0,0,0,0,0,0,0,0,0,0,0,0,0,0,0,0,0,0,0,0,0,0,0,0,0,0,0,0,0,0,0,0,0,0,0,0,0,0,0,0,0,
0,0,0,0,0,0,0,0,0,0,0,0,0,0,0,0,0,0,0,0,0,0,0,0,0,0,0,0,0,0,0,0,0,0,0,0,0,0,0,0,0,0,0,0,0,0,0,0,0,0,0,0,0,0,0,0,0,0,0,0,0,0,0,0,
0,0,0,0,0,0,0,0,0,0,0,0,0,0,0,0,0,0,0,0,0,0,0,0,0,0,0,0,0,0,0,0,0,0,0,0,0,0,0,0,0,0,0,0,0,0,0,0,0,0,0,0,0,0,0,0,0,0,0,0,0,0,0,0,
0,0,0,0,0,0,0,0,0,0,0,0,0,0,0,0,0,0,0,0,0,0,0,0,0,0,0,0,0,0,0,0,0,0,0,0,0,0,0,0,0,0,0,0,0,0,0,0,0,0,0,0,0,0,0,0,0,0,0,0,0,0,0,0,
0,0,0,0,0,0,0,0,0,0,0,0,0,0,0,0,0,0,0,0,0,0,0,0,0,0,0,0,0,0,0,0,0,0,0,0,0,0,0,0,0,0,0,0,0,0,0,0,0,0,0,0,0,0,0,0,0,0,0,0,0,0,0,0,
0,0,0,0,0,0,0,0,0,0,0,0,0,0,0,0,0,0,0,0,0,0,0,0,0,0,0,0,0,0,0,0,0,0,0,0,0,0,0,0,0,0,0,0,0,0,0,0,0,0,0,0,0,0,0,0,0,0,0,0,0,0,0,0,
0,0,0,0,0,0,0,0,0,0,0,0,0,0,0,0,0,0,0,0,0,0,0,0,0,0,0,0,0,0,0,0,0,0,0,0,0,0,0,0,0,0,0,0,0,0,0,0,0,0,0,0,0,0,0,0,0,0,0,0,0,0,0,0,
0,0,0,0,0,0,0,0,0,0,0,0,0,0,0,0,0,0,0,0,0,0,0,0,0,0,0,0,0,0,0,0,0,0,0,0,0,0,0,0,0,0,0,0,0,0,0,0,0,0,0,0,0,0,0,0,0,0,0,0,0,0,0,0,
0,0,0,0,0,0,0,0,0,0,0,0,0,0,0,0,0,0,0,0,0,0,0,0,0,0,0,0,0,0,0,0,0,0,0,0,0,0,0,0,0,0,0,43,0,0,0,0,0,0,0,0,0,0,0,0,0,0,0,0,0,0,0,0,
0,0,0,0,0,0,0,0,0,0,0,0,0,0,0,0,0,0,0,0,0,0,0,0,0,0,0,0,0,0,0,0,0,0,0,0,0,0,0,0,0,0,0,59,0,0,0,0,0,0,0,0,0,0,0,0,0,0,0,0,0,0,0,0,
0,0,0,0,0,0,0,0,0,0,0,0,0,0,0,0,0,0,0,0,0,0,0,0,0,0,0,0,0,0,0,0,0,0,0,0,0,0,0,0,0,0,0,0,0,0,0,0,0,0,0,0,0,0,0,0,0,0,0,0,0,0,0,0,
0,0,0,0,0,0,0,0,0,0,0,0,0,0,0,0,0,0,0,0,0,0,0,0,0,0,0,0,0,0,0,0,0,0,0,0,0,0,0,0,0,0,0,0,0,0,0,0,0,0,0,0,0,0,0,0,0,0,0,0,0,0,0,0,
0,0,0,0,0,0,0,0,0,0,0,0,0,0,0,0,0,0,0,0,0,0,0,0,0,0,0,0,0,0,0,0,0,0,0,0,0,0,0,0,0,0,0,0,0,0,0,0,0,0,0,0,0,0,0,0,0,0,0,0,0,0,0,0,
0,0,0,0,0,0,0,0,0,0,0,0,0,0,0,0,0,0,0,0,0,0,0,0,0,0,0,0,0,0,0,0,0,0,0,0,0,0,0,0,0,0,0,0,0,0,0,0,0,0,0,0,0,0,0,0,0,0,0,0,0,0,0,0,
0,0,0,0,0,0,0,0,0,0,0,0,0,0,0,0,0,0,0,0,0,0,0,0,0,0,0,0,0,0,0,0,0,0,0,0,0,0,0,0,0,0,0,0,0,0,0,0,0,0,0,0,0,0,0,0,0,0,0,0,0,0,0,0,
0,0,0,0,0,0,0,0,0,0,0,0,0,0,0,0,0,0,0,0,0,0,0,0,0,0,0,0,0,0,0,0,0,0,0,0,0,0,0,0,0,0,0,0,0,0,0,0,0,0,0,0,0,0,0,0,0,0,0,0,0,0,0,0,
0,0,0,0,0,0,0,0,0,0,0,0,0,0,0,0,0,0,0,0,0,0,0,0,0,0,0,0,0,0,0,0,0,0,0,0,0,0,0,0,0,0,0,0,0,0,0,0,0,0,0,0,0,0,0,0,0,0,0,0,0,0,0,0,
0,0,0,0,0,0,0,0,0,0,0,0,0,0,0,0,0,0,0,0,0,0,0,0,0,0,0,0,0,0,0,0,0,0,0,0,0,0,0,0,0,0,0,0,0,0,0,0,0,0,0,0,0,0,0,0,0,0,0,0,0,0,0,0,
0,0,0,0,0,0,0,0,0,0,0,0,0,0,0,0,0,0,0,0,0,0,0,0,0,0,0,0,0,0,0,0,0,0,0,0,0,0,0,0,0,0,0,0,0,0,0,0,0,0,0,0,0,0,0,0,0,0,0,0,0,0,0,0,
0,0,0,0,0,0,0,0,0,0,0,0,0,0,0,0,0,0,0,0,0,0,0,0,0,0,0,0,0,0,0,0,0,0,0,0,0,0,0,0,0,0,0,0,0,0,0,0,0,0,0,0,0,0,0,0,0,0,0,0,0,0,0,0,
0,0,0,0,0,0,0,0,0,0,43,0,0,0,0,0,0,0,0,0,0,0,0,0,0,0,0,0,0,0,0,0,0,0,0,0,0,0,0,0,0,0,0,0,0,0,0,0,0,0,0,0,0,0,0,0,0,0,0,0,0,0,0,0,
0,0,0,0,0,0,0,0,0,0,59,0,0,0,0,0,0,0,0,0,0,0,0,0,0,0,0,0,0,0,0,0,0,0,0,0,0,0,0,0,0,0,0,0,0,0,0,0,0,0,0,0,0,0,0,0,0,0,0,0,0,0,0,0,
0,0,0,0,0,0,0,0,0,0,0,0,0,0,0,0,0,0,0,0,0,0,0,0,0,0,0,0,0,0,0,0,0,0,0,0,0,0,0,0,0,0,0,0,0,0,0,0,0,0,0,0,0,0,0,0,0,0,0,0,0,0,0,0
</data>
 </layer>
 <layer id="5" name="table" width="64" height="36">
  <data encoding="csv">
0,0,0,0,0,0,0,0,0,0,0,0,0,0,0,0,0,0,0,0,0,0,0,0,0,0,0,0,0,0,0,0,0,0,0,0,0,0,0,0,0,0,0,0,0,0,0,0,0,0,0,0,0,0,0,0,0,0,0,0,0,0,0,0,
0,0,0,0,0,0,0,0,0,0,0,0,0,0,0,0,0,0,0,0,0,0,0,0,0,0,0,0,0,0,0,0,0,0,0,0,0,0,0,0,0,0,0,0,0,0,0,0,0,0,0,0,0,0,0,0,0,0,0,0,0,0,0,0,
0,0,0,0,0,0,0,0,0,0,0,0,0,0,0,0,0,0,0,0,0,0,0,0,0,0,0,0,0,0,0,0,0,0,0,0,0,0,0,0,0,0,0,0,0,0,0,0,0,0,0,0,0,0,0,0,0,0,0,0,0,0,0,0,
0,0,0,0,0,0,0,0,0,0,0,0,0,0,0,0,0,0,0,0,0,0,0,0,0,0,0,0,0,0,0,0,0,0,0,0,0,0,0,0,0,0,0,0,0,0,0,0,0,0,0,0,0,0,0,0,0,0,0,0,0,0,0,0,
0,0,0,0,0,0,0,0,0,0,0,0,0,0,0,0,0,0,0,0,0,0,0,0,0,0,0,0,0,0,0,0,0,0,0,0,0,0,0,0,0,0,0,0,0,0,0,0,0,0,0,0,0,0,0,0,0,0,0,0,0,0,0,0,
0,0,0,0,0,0,0,0,0,0,0,0,0,0,0,0,0,0,0,0,0,0,0,0,0,0,0,0,0,0,0,0,0,0,0,0,0,0,0,0,0,0,0,0,0,0,0,0,0,0,0,0,0,0,0,0,0,0,0,0,0,0,0,0,
0,0,0,0,0,0,0,0,0,0,0,0,0,0,0,0,0,0,0,0,0,0,0,0,0,0,0,0,0,0,0,0,0,0,0,0,0,0,0,0,0,0,0,0,0,0,0,0,0,0,0,0,0,0,0,0,0,0,0,0,0,0,0,0,
0,0,0,0,0,0,0,0,0,0,0,0,0,0,0,0,0,0,0,0,0,0,0,0,0,0,0,0,0,0,0,0,0,0,0,0,0,0,0,0,0,0,0,0,0,0,0,0,0,0,0,0,0,0,0,0,0,0,0,0,0,0,0,0,
0,0,0,0,0,0,0,0,0,0,0,0,0,0,0,0,0,0,0,0,0,0,0,0,0,0,0,0,0,0,0,0,0,0,0,0,0,0,0,0,0,0,0,0,0,0,0,0,0,0,0,0,0,0,0,0,0,0,0,0,0,0,0,0,
0,0,0,0,0,0,0,0,0,0,0,0,0,0,0,0,0,0,0,0,0,0,0,0,0,0,0,0,0,0,0,0,0,0,0,0,0,0,0,0,0,0,0,0,0,0,0,0,0,0,0,0,0,0,0,0,0,0,0,0,0,0,0,0,
0,0,0,0,0,0,0,0,0,0,0,0,0,0,0,0,0,0,0,0,0,0,0,0,0,0,0,0,0,0,0,0,0,0,0,0,0,0,0,0,0,0,0,0,0,0,0,0,0,0,0,0,0,0,0,0,0,0,0,0,0,0,0,0,
0,0,0,0,0,0,0,0,0,0,0,0,0,0,0,0,0,0,0,0,0,0,0,0,0,0,0,0,0,0,0,0,0,0,0,0,0,0,0,0,0,0,0,0,0,0,0,0,0,0,0,0,0,0,0,0,0,0,0,0,0,0,0,0,
0,0,0,0,0,0,0,0,0,0,0,0,0,0,0,0,0,0,0,0,0,0,0,0,0,0,0,0,0,0,0,0,0,0,0,0,0,0,0,0,0,0,0,0,0,0,0,0,0,0,0,0,0,0,0,0,0,0,0,0,0,0,0,0,
0,0,0,0,0,0,0,0,0,0,0,0,0,0,0,0,0,0,0,0,0,0,0,0,0,0,0,0,0,0,0,0,0,0,0,0,0,0,0,0,0,0,0,0,0,0,0,0,0,0,0,0,0,0,0,0,0,0,0,0,0,0,0,0,
0,0,0,0,0,0,0,0,0,0,0,0,0,0,0,0,0,0,0,0,0,0,0,0,0,0,0,0,0,0,0,0,0,0,0,0,0,0,0,0,0,0,0,0,0,0,0,0,0,0,0,0,0,0,0,0,0,0,0,0,0,0,0,0,
0,0,0,0,0,0,0,0,0,0,0,0,0,0,0,0,0,0,0,0,0,0,0,0,0,0,0,0,0,0,0,0,0,0,0,0,0,0,0,0,0,0,0,0,0,0,0,0,0,0,0,0,0,0,0,0,0,0,0,0,0,0,0,0,
0,0,0,0,0,0,0,0,0,0,0,0,0,0,0,0,0,0,0,0,0,0,0,0,0,0,0,0,0,0,0,0,0,0,0,0,0,0,0,0,0,0,0,0,0,0,0,0,0,0,0,0,0,0,0,0,0,0,0,0,0,0,0,0,
0,0,0,0,0,0,0,0,0,0,0,0,0,0,0,0,0,0,0,0,0,0,0,0,0,0,0,0,0,0,0,0,0,0,0,0,0,0,0,0,0,0,0,0,0,0,0,0,0,0,0,0,0,0,0,0,0,0,0,0,0,0,0,0,
0,0,0,0,0,0,0,0,0,0,0,0,0,0,0,0,0,0,0,0,0,0,0,0,0,0,0,0,0,0,0,0,0,0,0,0,0,0,0,0,0,0,0,0,0,0,0,0,0,0,0,0,0,0,0,0,0,0,0,0,0,0,0,0,
0,0,0,0,0,0,0,0,0,0,0,0,0,0,0,0,0,0,0,0,0,0,0,0,0,0,0,0,0,0,0,0,0,0,0,0,0,0,0,0,0,0,0,0,0,0,0,0,0,0,0,0,0,0,0,0,0,0,0,0,0,0,0,0,
0,0,0,0,0,0,0,0,0,0,0,0,0,0,0,0,0,0,0,0,0,0,0,0,0,0,0,0,0,0,0,0,0,0,0,0,0,0,0,0,0,0,0,0,0,0,0,0,0,0,0,0,0,0,0,0,0,0,0,0,0,0,0,0,
0,0,0,0,0,0,0,0,0,0,0,0,0,0,0,0,0,0,0,0,0,0,0,0,0,0,0,0,0,0,0,0,0,0,0,0,0,0,0,0,0,0,0,0,0,0,0,0,0,0,0,0,0,0,0,0,0,0,0,0,0,0,0,0,
0,0,0,0,0,0,0,0,0,0,0,0,0,0,0,0,0,0,0,0,0,0,0,0,0,0,0,0,0,0,0,0,0,0,0,0,0,0,0,0,0,0,0,0,0,0,0,0,0,0,0,0,0,0,0,0,0,0,0,0,0,0,0,0,
0,0,0,0,0,0,0,0,0,0,0,0,0,0,0,0,0,0,0,0,0,0,0,0,0,0,0,0,0,0,0,0,0,0,0,0,0,0,0,0,0,0,0,0,0,0,0,0,0,0,0,0,0,0,0,0,0,0,0,0,0,0,0,0,
0,0,0,0,0,0,0,0,0,0,0,0,0,0,0,0,0,0,0,0,0,0,0,0,0,0,0,0,0,0,0,0,0,0,0,0,0,0,0,0,0,0,0,0,0,0,0,0,0,0,0,0,0,0,0,0,0,0,0,0,0,0,0,0,
0,0,0,0,0,0,0,0,0,0,0,0,0,0,0,0,0,0,0,0,0,0,0,0,0,0,0,0,0,0,0,0,0,0,0,0,0,0,0,0,0,0,0,0,0,0,0,0,0,0,0,0,0,0,0,0,0,0,0,0,0,0,0,0,
0,0,0,0,0,0,0,0,0,0,0,0,0,0,0,0,0,0,0,0,0,0,0,0,0,0,0,0,0,0,0,0,0,0,0,0,0,0,0,0,0,0,0,0,0,0,0,0,0,0,0,0,0,0,0,0,0,0,0,0,0,0,0,0,
0,0,0,0,0,0,0,0,0,0,0,0,0,0,0,0,0,0,0,0,0,0,0,0,0,0,0,0,0,0,0,0,0,0,0,0,0,0,0,0,0,0,0,0,0,0,0,0,0,0,0,0,0,0,0,0,0,0,0,0,0,0,0,0,
0,0,0,0,0,0,0,0,0,0,0,0,0,0,0,0,0,0,0,0,0,0,0,0,0,0,0,0,0,0,0,0,0,0,0,0,0,0,0,0,0,0,0,0,0,0,0,0,0,0,0,0,0,0,0,0,0,0,0,0,0,0,0,0,
0,0,0,0,0,0,0,0,0,0,0,0,0,0,0,0,0,0,0,0,0,0,0,0,0,0,0,0,0,0,0,0,0,0,0,0,0,0,0,0,0,0,0,0,0,0,0,0,0,0,0,0,0,0,0,0,0,0,0,0,0,0,0,0,
0,0,0,0,0,0,0,0,0,0,0,0,0,0,0,0,0,0,0,0,0,0,0,0,0,0,0,0,0,0,0,0,0,0,0,0,0,0,0,0,0,0,0,0,0,0,0,0,0,0,0,0,0,0,0,0,0,0,0,0,0,0,0,0,
0,0,0,0,0,0,0,0,0,0,0,0,0,0,0,0,0,0,0,0,0,0,0,0,0,0,0,0,0,0,0,0,0,0,0,0,0,0,0,0,0,0,0,0,0,0,0,0,0,0,0,0,0,0,0,0,0,0,0,0,0,0,0,0,
0,0,0,0,0,0,0,0,0,0,0,0,0,0,0,0,0,0,0,0,0,0,0,0,0,0,0,0,0,0,0,0,0,0,0,0,0,0,0,0,0,0,0,0,0,0,0,0,0,0,0,0,0,0,0,0,0,0,0,0,0,0,0,0,
0,0,0,0,0,0,0,0,0,0,0,0,0,0,0,0,0,0,0,0,0,0,0,0,0,0,0,0,0,0,0,0,0,0,0,0,0,0,0,0,0,0,0,0,0,0,0,0,0,0,0,0,0,0,0,0,0,0,0,0,0,3,4,5,
0,0,0,0,0,0,0,0,0,0,0,0,0,0,0,0,0,0,0,0,0,0,0,0,0,0,0,0,0,0,0,0,0,0,0,0,0,0,0,0,0,0,0,0,0,0,0,0,0,0,0,0,0,0,0,0,0,0,0,0,0,19,20,21,
0,0,0,0,0,0,0,0,0,0,0,0,0,0,0,0,0,0,0,0,0,0,0,0,0,0,0,0,0,0,0,0,0,0,0,0,0,0,0,0,0,0,0,0,0,0,0,0,0,0,0,0,0,0,0,0,0,0,0,0,0,35,36,37
</data>
 </layer>
 <objectgroup id="6" name="objects">
  <object id="1" name="point d'apparition" x="68.6667" y="647.333">
   <point/>
  </object>
  <object id="3" type="collision" x="0" y="-0.5" width="19.5" height="720"/>
  <object id="7" type="collision" x="0" y="-1" width="1282" height="20"/>
  <object id="9" type="collision" x="1260.5" y="18.75" width="19" height="683"/>
  <object id="10" type="collision" x="1120.25" y="19.25" width="20" height="240"/>
  <object id="11" type="collision" x="1040.5" y="19.75" width="19.25" height="101.25"/>
  <object id="12" type="collision" x="1000" y="119.75" width="120.25" height="19.75"/>
  <object id="13" type="collision" x="1060.5" y="138.75" width="19" height="221.125"/>
  <object id="14" type="collision" x="1140" y="60.25" width="79.75" height="19"/>
  <object id="15" type="collision" x="1240" y="119" width="20.75" height="21"/>
  <object id="16" type="collision" x="1180" y="200.25" width="80.5" height="19.5"/>
  <object id="17" type="collision" x="1120.25" y="300.114" width="140.5" height="19.8864"/>
  <object id="18" type="collision" x="1180" y="317.157" width="19.875" height="164.937"/>
  <object id="19" type="collision" x="1199.25" y="460.25" width="40" height="19.5"/>
  <object id="20" type="collision" x="1120" y="380" width="59.5" height="20"/>
  <object id="21" type="collision" x="1080.25" y="560.25" width="180.5" height="19.5"/>
  <object id="22" type="collision" x="20" y="700" width="1259" height="20"/>
  <object id="24" type="collision" x="120" y="120" width="20" height="580"/>
  <object id="26" type="collision" x="60" y="120" width="60" height="20"/>
  <object id="27" type="collision" x="140" y="260" width="40" height="20"/>
  <object id="28" type="collision" x="140" y="360" width="60" height="20"/>
  <object id="29" type="collision" x="180" y="340" width="20" height="20"/>
  <object id="30" type="collision" x="240" y="280" width="18.875" height="160"/>
  <object id="31" type="collision" x="260" y="360" width="40" height="20"/>
  <object id="32" type="collision" x="140" y="480" width="260" height="20"/>
  <object id="33" type="collision" x="340" y="320" width="20" height="340"/>
  <object id="34" type="collision" x="300" y="420" width="40" height="20"/>
  <object id="35" type="collision" x="280" y="500" width="20" height="60"/>
  <object id="36" type="collision" x="140" y="540" width="80" height="20"/>
  <object id="37" type="collision" x="200" y="560" width="20" height="20"/>
  <object id="38" type="collision" x="220" y="640" width="20" height="60"/>
  <object id="39" type="collision" x="180" y="640" width="40" height="20"/>
  <object id="40" type="collision" x="260" y="600" width="260" height="20"/>
  <object id="41" type="collision" x="500" y="480" width="20" height="120"/>
  <object id="42" type="collision" x="440" y="520" width="60" height="20"/>
  <object id="43" type="collision" x="520" y="480" width="80" height="20"/>
  <object id="44" type="collision" x="580" y="500" width="20" height="20"/>
  <object id="45" type="collision" x="560" y="560" width="180" height="20"/>
  <object id="46" type="collision" x="400" y="680" width="20" height="20"/>
  <object id="47" type="collision" x="480" y="680" width="20" height="20"/>
  <object id="48" type="collision" x="460" y="660" width="99.75" height="20"/>
  <object id="49" type="collision" x="600" y="660" width="60" height="20"/>
  <object id="50" type="collision" x="640" y="580" width="20" height="80"/>
  <object id="51" type="collision" x="660" y="620" width="220" height="20"/>
  <object id="52" type="collision" x="860" y="600" width="20" height="20"/>
  <object id="53" type="collision" x="760" y="640" width="20" height="60"/>
  <object id="54" type="collision" x="920" y="560" width="20" height="140"/>
  <object id="55" type="collision" x="940" y="560" width="80" height="20"/>
  <object id="56" type="collision" x="1000" y="440" width="20" height="120"/>
  <object id="57" type="collision" x="940" y="480" width="60" height="20"/>
  <object id="58" type="collision" x="940" y="640" width="180" height="20"/>
  <object id="59" type="collision" x="1080" y="460" width="40" height="40"/>
  <object id="60" type="collision" x="780" y="520" width="60" height="40"/>
  <object id="61" type="collision" x="880" y="400" width="20" height="140"/>
  <object id="62" type="collision" x="820" y="460" width="60" height="20"/>
  <object id="63" type="collision" x="820" y="440" width="20" height="20"/>
  <object id="67" type="collision" x="720" y="220" width="20" height="300"/>
  <object id="68" type="collision" x="640" y="480" width="80" height="20"/>
  <object id="69" type="collision" x="640" y="400" width="40" height="40"/>
  <object id="70" type="collision" x="580" y="220" width="20" height="220"/>
  <object id="71" type="collision" x="540" y="200" width="60" height="20"/>
  <object id="72" type="collision" x="120" y="20" width="20" height="60"/>
  <object id="73" type="collision" x="80" y="60" width="40" height="20"/>
  <object id="74" type="collision" x="200" y="120" width="40" height="40"/>
  <object id="75" type="collision" x="200" y="60" width="100" height="20"/>
  <object id="76" type="collision" x="300" y="20" width="20" height="260"/>
  <object id="77" type="collision" x="320" y="100" width="60" height="20"/>
  <object id="78" type="collision" x="200" y="200" width="100" height="20"/>
  <object id="79" type="collision" x="320" y="220" width="180" height="20"/>
  <object id="80" type="collision" x="400" y="160" width="20" height="60"/>
  <object id="81" type="collision" x="440" y="20" width="20" height="120"/>
  <object id="82" type="collision" x="380" y="40" width="60" height="20"/>
  <object id="83" type="collision" x="440" y="320" width="20" height="120"/>
  <object id="84" type="collision" x="400" y="320" width="40" height="20"/>
  <object id="86" type="collision" x="460" y="240" width="20" height="100"/>
  <object id="87" type="collision" x="500" y="20" width="20" height="140"/>
  <object id="88" type="collision" x="520" y="80" width="280" height="20"/>
  <object id="89" type="collision" x="780" y="60" width="20" height="20"/>
  <object id="90" type="collision" x="660" y="20" width="20" height="20"/>
  <object id="91" type="collision" x="880" y="20" width="20" height="60"/>
  <object id="92" type="collision" x="900" y="40" width="60" height="20"/>
  <object id="93" type="collision" x="720" y="100" width="20" height="60"/>
  <object id="94" type="collision" x="640" y="180" width="40" height="40"/>
  <object id="95" type="collision" x="600" y="300" width="80" height="20"/>
  <object id="96" type="collision" x="480" y="300" width="60" height="20"/>
  <object id="97" type="collision" x="800" y="280" width="40" height="40"/>
  <object id="98" type="collision" x="740" y="380" width="280" height="20"/>
  <object id="99" type="collision" x="920" y="120" width="20" height="260"/>
  <object id="100" type="collision" x="980" y="320" width="40" height="20"/>
  <object id="101" type="collision" x="1000" y="240" width="20" height="80"/>
  <object id="102" type="collision" x="940" y="240" width="60" height="20"/>
  <object id="103" type="collision" x="860" y="160" width="20" height="80"/>
  <object id="104" type="collision" x="820" y="140" width="100" height="20"/>
  <object id="111" name="statue1" type="statue" x="280" y="20" width="20" height="40">
   <ellipse/>
  </object>
  <object id="112" name="statue3" type="statue" x="520" y="40" width="20" height="40">
   <ellipse/>
  </object>
  <object id="113" name="statue2" type="statue" x="200" y="660" width="20" height="40">
   <ellipse/>
  </object>
  <object id="114" name="statue4" type="statue" x="860" y="420" width="20" height="40">
   <ellipse/>
  </object>
  <object id="115" name="statue5" type="statue" x="1140" y="20" width="20" height="40">
   <ellipse/>
  </object>
  <object id="116" name="table" x="1221" y="660" width="60" height="60"/>
  <object id="125" type="mur_piege" x="19.5" y="179.75" width="60" height="20.25"/>
  <object id="126" type="mur_piege" x="60" y="159.5" width="20" height="22.75"/>
  <object id="127" type="mur_piege" x="60.25" y="280.25" width="59" height="20"/>
  <object id="128" type="mur_piege" x="19.5" y="420.25" width="60.25" height="18.75"/>
  <object id="129" type="mur_piege" x="60" y="519.5" width="59.5" height="19.5"/>
  <object id="130" type="mur_piege" x="159.75" y="579.75" width="20" height="39.25"/>
  <object id="131" type="mur_piege" x="240" y="559.25" width="60.25" height="20.25"/>
  <object id="132" type="mur_piege" x="280.5" y="620.5" width="19.25" height="59.5"/>
  <object id="134" type="mur_piege" x="400.273" y="620.06" width="19.3636" height="19.3636"/>
  <object id="135" type="mur_piege" x="380" y="560" width="60" height="20"/>
  <object id="137" type="mur_piege" x="380" y="540" width="20" height="20"/>
  <object id="142" type="mur_piege" x="139.333" y="419" width="60.6667" height="20.3333"/>
  <object id="143" type="mur_piege" x="180.031" y="439.818" width="20" height="19.6364"/>
  <object id="144" type="mur_piege" x="280.583" y="400.333" width="18.4167" height="38.6667"/>
  <object id="145" type="mur_piege" x="220.102" y="380.203" width="19.7391" height="19.6087"/>
  <object id="146" type="mur_piege" x="200.028" y="300.028" width="19.8164" height="19.9275"/>
  <object id="147" type="mur_piege" x="280.667" y="319.333" width="19.3333" height="40.3333"/>
  <object id="148" type="mur_piege" x="160" y="220.334" width="19.6667" height="39.3333"/>
  <object id="149" type="mur_piege" x="80" y="80" width="19.6364" height="20"/>
  <object id="150" type="mur_piege" x="160" y="40" width="19.8182" height="19.6364"/>
  <object id="151" type="mur_piege" x="139.818" y="120.364" width="20.1818" height="18.9091"/>
  <object id="153" type="mur_piege" x="259.667" y="120" width="40.3333" height="39.6667"/>
  <object id="154" type="mur_piege" x="340.333" y="140" width="39.3333" height="39.3333"/>
  <object id="155" type="mur_piege" x="399.667" y="80.3333" width="40.6667" height="19.3333"/>
  <object id="156" type="mur_piege" x="460.333" y="159.667" width="59.6667" height="20"/>
  <object id="157" type="mur_piege" x="580.333" y="120" width="39" height="39.3333"/>
  <object id="158" type="mur_piege" x="600.333" y="39.3333" width="19.3333" height="40.3333"/>
  <object id="159" type="mur_piege" x="660.333" y="39" width="19.3333" height="20.6667"/>
  <object id="160" type="mur_piege" x="720.333" y="40" width="18.6667" height="39.3333"/>
  <object id="161" type="mur_piege" x="660.667" y="120.333" width="38.6667" height="19.6667"/>
  <object id="162" type="mur_piege" x="680" y="139.667" width="40" height="20.3333"/>
  <object id="165" type="mur_piege" x="759.667" y="139.667" width="20.3333" height="79"/>
  <object id="166" type="mur_piege" x="760" y="200.333" width="79.6667" height="18.6667"/>
  <object id="167" type="mur_piege" x="859.333" y="259.697" width="20.3333" height="20.3333"/>
  <object id="168" type="mur_piege" x="879.273" y="260" width="20" height="100.364"/>
  <object id="170" type="mur_piege" x="220" y="239.727" width="19.9091" height="20.2727"/>
  <object id="171" type="mur_piege" x="979.818" y="60" width="19.8182" height="39.6364"/>
  <object id="172" type="mur_piege" x="999.455" y="80.1818" width="20" height="19.4545"/>
  <object id="173" type="mur_piege" x="1140.18" y="119.636" width="59.6364" height="19.8182"/>
  <object id="174" type="mur_piege" x="1220" y="99.6364" width="20.1818" height="40.3636"/>
  <object id="176" type="mur_piege" x="1180.18" y="240" width="39.6364" height="19.6364"/>
  <object id="177" type="mur_piege" x="1180.36" y="260" width="18.9091" height="39.0909"/>
  <object id="178" type="mur_piege" x="1219.82" y="360" width="40.3636" height="19.2727"/>
  <object id="179" type="mur_piege" x="1240.55" y="339.818" width="19.4545" height="20.5455"/>
  <object id="180" type="mur_piege" x="1060" y="419.455" width="119.818" height="20.1818"/>
  <object id="181" type="mur_piege" x="1140" y="439.455" width="39.6364" height="20.5455"/>
  <object id="182" type="mur_piege" x="500.667" y="359" width="59.3333" height="80"/>
  <object id="183" type="mur_piege" x="559.667" y="320" width="20" height="39.3333"/>
  <object id="185" type="mur_piege" x="500.667" y="240.667" width="18.3333" height="38"/>
  <object id="186" type="mur_piege" x="519" y="240.667" width="20" height="18.3333"/>
  <object id="187" type="mur_piege" x="640" y="240" width="20" height="39"/>
  <object id="188" type="mur_piege" x="660.333" y="240.333" width="20" height="18.3333"/>
  <object id="189" type="mur_piege" x="620.333" y="341" width="19" height="38.3333"/>
  <object id="190" type="mur_piege" x="636.667" y="340.333" width="63.3333" height="19"/>
  <object id="191" type="mur_piege" x="680.182" y="359.818" width="19.6364" height="20"/>
  <object id="192" type="mur_piege" x="360.25" y="259.75" width="80" height="19.75"/>
  <object id="193" type="mur_piege" x="400.25" y="279.5" width="19.25" height="19.75"/>
  <object id="194" x="359.75" y="379.5" width="60.25" height="19.25"/>
  <object id="196" type="mur_piege" x="400.75" y="440.75" width="58.5" height="18"/>
  <object id="197" type="mur_piege" x="540.5" y="519.5" width="59.25" height="20.25"/>
  <object id="198" type="mur_piege" x="641" y="499.5" width="18.25" height="19.75"/>
  <object id="199" type="mur_piege" x="540.25" y="599.75" width="39.5" height="19.5"/>
  <object id="200" type="mur_piege" x="560.75" y="579.75" width="18" height="18.5"/>
  <object id="201" type="mur_piege" x="699.75" y="660" width="39.75" height="19.75"/>
  <object id="202" type="mur_piege" x="800.25" y="559.5" width="19.25" height="40"/>
  <object id="203" type="mur_piege" x="940.25" y="519.75" width="19.75" height="40"/>
  <object id="204" type="mur_piege" x="841.5" y="639.25" width="58.25" height="39.25"/>
  <object id="205" type="mur_piege" x="739.818" y="459.273" width="40.1818" height="20.1818"/>
  <object id="208" type="mur_piege" x="1060" y="519.875" width="40.125" height="20"/>
  <object id="209" type="mur_piege" x="1080.38" y="539.25" width="19.125" height="20.875"/>
  <object id="210" type="mur_piege" x="1040" y="599.455" width="19.6364" height="40.9091"/>
  <object id="211" type="mur_piege" x="1100.55" y="578.545" width="19.2727" height="20.9091"/>
  <object id="212" type="mur_piege" x="1080.36" y="659.818" width="19.0909" height="18.9091"/>
  <object id="213" type="mur_piege" x="1140" y="619.636" width="60" height="20.5455"/>
  <object id="214" type="mur_piege" x="1140" y="640.182" width="20" height="18.9091"/>
  <object id="215" type="mur_piege" x="1180" y="539.273">
   <polygon points="0,0 0.363636,-19.0909 20.7273,-18.7273 20.1818,-39.6364 59.2727,-38.9091 59.6364,-19.8182 39.2727,-19.8182 39.6364,0"/>
  </object>
  <object id="216" type="mur_piege" x="980" y="159.625" width="80.5" height="20.125"/>
  <object id="218" type="collision" x="540" y="639.75" width="19.75" height="20.25"/>
  <object id="219" type="collision" x="520.5" y="519.5" width="19.75" height="20"/>
  <object id="221" type="collision" x="1219.63" y="178.5" width="20.75" height="21"/>
  <object id="222" type="collision" x="1179.29" y="79.5" width="20.75" height="21"/>
  <object id="223" type="invisible" x="19.4545" y="519.818" width="13" height="20"/>
  <object id="224" type="invisible" x="108.023" y="420.091" width="12.1591" height="19.3636"/>
  <object id="225" type="invisible" x="19.6364" y="279.727" width="14.2727" height="20"/>
  <object id="226" type="invisible" x="140.75" y="100.5" width="18.5" height="19.5"/>
  <object id="227" type="invisible" x="199.5" y="19.75" width="20.75" height="20.5"/>
  <object id="228" type="invisible" x="240.25" y="39.75" width="20" height="19.25"/>
  <object id="229" type="invisible" x="259.455" y="260" width="40.3636" height="19.6364"/>
  <object id="230" type="invisible" x="419.455" y="500" width="20.1818" height="19.8182"/>
  <object id="231" type="invisible" x="627.5" y="480" width="12.5" height="19"/>
  <object id="232" type="invisible" x="500" y="639.75" width="40.25" height="20.25"/>
  <object id="234" type="invisible" x="180.5" y="599.25" width="52.25" height="19.75"/>
  <object id="235" type="invisible" x="140.25" y="640" width="13" height="20.75"/>
  <object id="236" type="invisible" x="719.75" y="519" width="20" height="39.75"/>
  <object id="238" type="invisible" x="678.667" y="218.667" width="41.6667" height="21.6667"/>
  <object id="239" type="invisible" x="820.667" y="18.3333" width="39.6667" height="101.667"/>
  <object id="240" type="invisible" x="979.667" y="219" width="60.6667" height="18.6667"/>
  <object id="241" type="invisible" x="1199.75" y="179.5" width="20.25" height="20.25"/>
  <object id="243" type="invisible" x="900.667" y="560" width="19.3333" height="20"/>
  <object id="245" type="invisible" x="1200" y="640.364" width="20.1818" height="58.7273"/>
  <object id="246" type="invisible" x="1220" y="639.636" width="20.5455" height="20"/>
  <object id="247" type="invisible" x="939.5" y="420" width="39.5" height="38.5"/>
  <object id="248" type="invisible" x="280.92" y="459.318" width="18.9091" height="19.3636"/>
 </objectgroup>
</map>
