<?xml version="1.0" encoding="UTF-8"?>
<map version="1.10" tiledversion="1.10.2" orientation="orthogonal" renderorder="right-down" width="64" height="36" tilewidth="20" tileheight="20" infinite="0" nextlayerid="7" nextobjectid="194">
 <tileset firstgid="1" source="neige.tsx"/>
 <tileset firstgid="161" source="viking.tsx"/>
 <layer id="2" name="backgrounds" width="64" height="36">
  <data encoding="csv">
1,1,1,1,1,1,1,1,1,1,1,1,1,1,1,1,1,1,1,1,1,1,1,1,1,1,1,1,1,1,1,1,1,1,1,1,1,1,1,1,1,1,1,1,1,1,1,1,1,1,1,1,1,1,1,1,1,1,1,1,1,1,1,1,
1,1,1,1,1,1,1,1,1,1,1,1,1,1,1,1,1,1,1,1,1,1,1,1,1,1,1,1,1,1,1,1,1,1,1,1,1,1,1,1,1,1,1,1,1,1,1,1,1,1,1,1,1,1,1,1,1,1,1,1,1,1,1,1,
1,1,1,1,1,1,1,1,1,1,1,1,1,1,1,1,1,1,1,1,1,1,1,1,1,1,1,1,1,1,1,1,1,1,1,1,1,1,1,1,1,1,1,1,1,1,1,1,1,1,1,1,1,1,1,132,133,1,1,1,1,1,1,1,
1,1,1,1,1,1,1,1,1,1,1,1,1,1,1,1,1,1,1,1,1,1,1,1,1,1,1,1,1,1,1,1,1,1,132,133,1,1,1,1,1,1,1,1,1,1,1,1,1,1,1,1,1,1,1,148,149,1,1,132,133,1,1,1,
1,1,1,1,1,1,1,1,1,1,1,1,1,1,1,132,133,1,1,1,1,1,1,1,1,1,1,1,1,1,1,1,1,1,148,149,1,1,1,1,1,1,1,1,1,1,132,133,1,1,1,1,1,1,1,1,1,1,1,148,149,1,1,1,
1,1,1,1,1,1,1,1,1,1,1,1,1,1,1,148,149,1,1,1,1,1,1,1,1,1,1,1,1,1,1,1,1,1,1,1,1,1,1,1,1,1,132,133,1,1,148,149,1,1,1,1,1,1,1,1,1,1,1,1,1,1,1,1,
1,1,1,1,1,1,1,1,1,1,1,132,133,1,1,1,1,1,1,1,1,1,1,1,1,1,1,1,1,1,1,1,1,1,1,1,1,1,1,1,1,1,148,149,1,1,1,1,1,1,1,1,1,1,1,1,1,1,1,1,1,1,1,1,
1,1,1,1,1,1,1,1,1,1,1,148,149,1,1,1,1,1,1,1,1,1,1,1,1,1,1,1,1,1,1,1,1,1,1,1,1,1,1,1,1,1,1,1,1,1,1,1,1,1,1,1,1,132,133,1,1,1,1,1,1,1,1,1,
1,1,1,1,1,1,1,1,1,1,1,1,1,1,1,1,1,1,1,1,1,1,1,1,1,1,1,1,1,1,1,1,1,1,1,1,1,1,1,1,1,1,1,1,1,1,1,1,1,1,1,1,1,148,149,1,1,1,1,1,1,1,1,1,
1,1,1,1,1,1,1,1,1,1,1,1,1,1,1,1,1,1,1,1,1,1,1,1,1,1,1,1,1,1,1,1,1,1,1,1,1,1,1,1,1,1,1,1,1,1,1,1,1,1,1,1,1,1,1,1,1,1,1,1,1,1,1,1,
1,1,1,1,1,1,1,1,1,1,1,1,1,1,1,1,1,1,1,1,1,1,1,1,1,1,1,1,1,1,1,1,1,1,1,1,1,1,1,1,1,1,1,1,1,1,1,1,1,1,1,1,1,1,1,1,1,1,1,1,1,1,1,1,
1,1,1,1,1,1,1,1,1,1,1,1,1,1,1,1,1,1,1,1,1,1,1,1,1,1,1,1,1,1,1,1,1,1,1,1,1,1,1,1,1,1,1,1,1,1,1,1,1,1,1,1,1,1,1,1,1,1,1,1,1,1,1,1,
1,1,1,1,1,1,1,1,1,1,1,1,1,1,1,1,1,1,1,1,1,1,1,1,1,1,1,1,1,1,1,1,1,1,1,1,1,1,1,1,1,1,1,1,1,1,1,1,1,1,1,1,1,1,1,1,1,1,1,1,1,1,1,1,
1,1,1,1,1,1,1,1,1,1,1,1,1,1,1,1,1,1,1,1,1,1,1,1,1,1,1,1,1,1,1,1,131,129,129,130,134,1,1,1,1,1,1,1,1,1,1,1,1,1,1,1,1,1,1,1,1,1,1,1,132,133,1,1,
1,1,1,1,1,1,1,1,1,1,1,1,1,1,1,1,1,1,1,1,1,1,1,1,1,1,1,1,1,1,1,1,145,135,145,145,146,1,1,1,1,1,1,1,1,1,1,1,1,1,1,1,1,1,1,1,1,1,1,1,148,149,1,1,
1,1,1,1,1,1,1,1,1,1,1,1,1,1,1,1,132,133,1,1,1,1,1,1,1,1,1,1,1,1,1,1,145,146,145,151,146,1,1,1,1,1,1,1,1,1,132,133,1,1,1,1,1,1,1,1,1,1,1,1,1,1,1,1,
1,1,1,1,1,1,1,1,1,1,1,1,1,1,1,1,148,149,1,1,1,1,1,1,1,1,1,1,1,1,1,1,145,146,146,146,146,1,1,1,1,1,1,1,1,1,148,149,1,1,1,1,1,1,1,1,1,1,1,1,1,1,1,1,
1,1,1,1,1,1,1,1,1,1,1,1,1,1,1,1,1,1,1,1,1,1,1,1,1,1,1,1,1,1,1,1,145,151,145,145,146,1,1,1,1,1,1,1,1,1,1,1,1,1,1,1,1,1,1,1,1,1,1,1,1,1,1,1,
1,1,1,1,1,1,132,133,1,1,1,1,1,1,1,1,1,1,1,1,1,1,1,1,1,1,1,1,1,1,1,1,145,146,145,114,146,1,1,1,1,1,1,1,1,1,1,1,1,1,1,1,1,1,1,1,1,1,1,1,1,1,1,1,
1,1,1,1,1,1,148,149,1,1,1,1,1,1,1,1,1,1,1,1,1,1,1,1,1,1,1,1,1,132,133,1,147,145,145,146,150,1,1,1,1,1,1,1,1,1,1,1,1,1,1,1,1,1,1,1,1,1,1,1,1,1,1,1,
1,1,1,1,1,1,1,1,1,1,1,1,1,1,1,1,1,1,1,1,1,1,1,1,1,1,1,1,1,148,149,1,1,1,1,1,1,1,1,1,1,1,1,1,1,1,1,1,1,1,1,1,1,1,1,1,1,1,1,1,1,1,1,1,
1,1,1,1,1,1,1,1,1,1,1,1,1,1,1,1,1,1,1,1,1,1,1,1,1,1,1,1,1,1,1,1,1,1,1,1,1,132,133,1,1,1,1,1,1,1,1,1,1,1,1,1,1,1,1,1,1,1,1,1,1,1,1,1,
1,1,1,1,1,1,1,1,1,1,1,1,1,1,1,1,1,1,1,1,1,1,1,1,1,1,1,1,1,1,1,1,1,1,1,1,1,148,149,1,1,1,1,1,1,1,1,1,1,1,1,1,1,1,1,1,1,1,1,1,1,1,1,1,
1,1,1,1,1,1,1,1,1,1,1,1,1,1,1,1,1,1,1,1,1,1,1,1,1,1,1,1,1,1,1,1,1,1,1,1,1,1,1,1,1,1,1,1,1,1,1,1,1,1,1,1,1,1,1,1,1,1,1,1,1,1,1,1,
1,1,1,1,1,1,1,1,132,133,1,1,1,1,1,1,1,1,1,1,1,1,1,1,1,1,1,1,1,132,133,1,1,1,1,1,1,1,1,1,1,1,1,1,1,1,1,1,1,1,132,133,1,1,1,1,1,1,1,1,1,1,1,1,
1,1,1,1,1,1,1,1,148,149,1,1,1,1,1,1,1,1,1,1,1,1,1,1,1,1,1,1,1,148,149,1,1,1,1,1,1,1,1,1,1,1,1,1,1,1,1,1,1,1,148,149,1,1,1,1,1,1,1,1,132,133,1,1,
1,1,1,1,1,1,1,1,1,1,1,1,1,1,1,1,1,1,1,1,1,1,1,1,1,1,1,1,1,1,1,1,1,1,1,1,1,1,1,1,1,1,1,1,1,1,1,1,1,1,1,1,1,1,1,1,1,1,1,1,148,149,1,1,
1,1,1,1,1,1,1,1,1,1,1,1,1,1,1,1,1,1,1,1,1,1,1,1,1,1,1,1,1,1,1,1,1,1,1,1,1,1,1,1,1,1,1,1,1,1,1,1,1,1,1,1,1,1,1,1,1,1,1,1,1,1,1,1,
1,1,1,1,1,1,1,131,129,130,134,1,1,1,1,1,1,1,1,1,1,1,1,1,1,1,1,1,1,1,1,1,1,1,1,1,1,1,1,1,1,1,1,1,1,1,1,1,1,1,1,1,1,1,1,1,1,1,1,1,1,1,1,1,
1,1,1,1,1,1,1,147,135,146,150,1,1,1,1,1,1,1,1,1,1,1,1,1,1,1,1,1,1,1,1,1,1,1,1,1,1,1,1,1,1,1,1,1,1,1,1,1,1,1,1,1,1,1,1,1,1,1,1,1,1,1,1,1,
1,1,1,1,1,1,1,1,1,1,1,1,1,1,1,1,1,1,1,1,1,1,1,1,1,1,1,1,1,1,1,1,1,1,1,1,1,1,1,1,1,1,1,1,1,1,1,1,1,1,1,1,1,1,1,1,1,1,1,1,1,1,1,1,
1,1,1,1,1,1,1,1,1,1,1,1,1,1,1,1,1,1,1,1,1,1,1,1,1,1,1,1,1,132,133,1,1,1,1,1,1,1,1,1,1,1,1,1,1,1,1,1,1,1,1,1,1,1,1,1,1,1,1,1,1,1,1,1,
1,1,1,1,1,1,1,1,1,1,1,1,1,1,1,1,1,1,1,1,1,1,1,1,1,1,1,1,1,148,149,1,1,1,1,1,1,1,1,1,1,1,1,1,1,1,1,1,1,1,1,1,1,1,1,1,1,132,133,1,1,1,1,1,
1,1,1,1,1,1,1,1,1,1,1,1,1,1,1,1,1,1,1,1,1,1,1,1,1,1,1,1,1,1,1,1,1,1,1,1,1,1,1,1,1,1,1,1,1,1,1,1,1,1,1,1,1,1,1,1,1,148,149,1,1,1,1,1,
1,1,1,1,1,1,1,1,1,1,1,1,1,1,1,1,1,1,1,1,1,1,1,1,1,1,1,1,1,1,1,1,1,1,1,1,1,1,1,1,1,1,1,1,1,1,1,1,1,1,1,1,1,1,1,1,1,1,1,1,1,1,1,1,
1,1,1,1,1,1,1,1,1,1,1,1,1,1,1,1,1,1,1,1,1,1,1,1,1,1,1,1,1,1,1,1,1,1,1,1,1,1,1,1,1,1,1,1,1,1,1,1,1,1,1,1,1,1,1,1,1,1,1,1,1,1,1,1
</data>
 </layer>
 <layer id="1" name="walls" width="64" height="36">
  <data encoding="csv">
123,123,123,123,123,123,123,123,123,123,123,123,123,123,123,123,123,123,123,123,123,123,123,123,123,123,123,123,123,123,123,123,123,123,123,123,123,123,123,123,123,123,123,123,123,123,123,123,123,123,123,123,123,123,123,123,123,123,123,123,123,123,123,123,
123,0,0,0,0,0,0,0,123,0,0,0,0,123,0,0,0,0,0,0,0,0,0,0,123,0,0,0,0,0,0,0,0,0,0,0,0,0,0,0,0,123,0,0,0,123,0,0,0,0,0,0,0,0,0,0,0,123,0,0,0,0,0,123,
123,0,0,0,0,0,0,0,123,0,0,0,0,123,0,0,0,0,0,0,0,0,0,0,123,0,0,0,0,0,0,0,0,0,0,0,0,0,0,0,0,123,0,0,0,123,0,0,0,0,0,0,0,0,0,0,0,123,0,0,0,0,0,123,
123,0,0,0,0,0,0,0,123,0,0,0,0,123,0,0,0,0,0,0,123,123,123,123,123,123,123,123,123,123,123,0,0,0,0,0,0,0,0,0,0,123,0,0,0,123,0,0,0,0,0,0,0,0,0,0,0,123,0,0,0,123,123,123,
123,0,0,0,0,0,0,0,123,0,0,123,123,123,0,0,0,0,0,0,0,0,0,0,0,0,0,0,0,0,0,0,0,0,0,0,123,123,123,123,123,123,123,0,0,0,0,0,123,123,0,0,123,0,0,0,0,123,0,0,0,0,0,123,
123,0,0,0,0,0,0,0,123,0,0,0,0,123,0,0,0,0,0,0,0,0,0,0,0,0,0,0,0,0,0,123,0,0,0,0,0,0,0,0,0,123,0,0,0,0,0,0,123,123,0,0,123,0,0,0,0,123,0,0,123,0,0,123,
123,0,0,0,0,0,0,0,123,0,0,0,0,123,0,0,0,0,0,0,0,0,0,0,0,0,0,0,0,0,0,123,0,0,0,0,0,0,0,0,0,123,0,0,0,0,0,0,0,0,0,0,123,0,0,0,0,123,0,0,123,0,0,123,
123,0,0,123,123,123,0,0,123,0,0,0,0,123,123,123,123,123,123,123,123,123,123,123,0,0,0,0,0,0,0,123,123,123,123,123,123,123,123,123,123,123,0,0,0,0,0,0,0,0,0,0,123,0,0,0,0,123,0,0,123,0,0,123,
123,0,0,123,123,123,0,0,123,0,0,0,0,123,0,0,0,0,0,0,0,0,0,0,0,0,0,123,0,0,0,123,0,0,0,0,0,0,0,0,0,0,0,0,0,0,0,0,0,0,0,0,123,0,0,0,0,123,0,0,123,0,0,123,
123,0,0,123,123,123,0,0,123,0,0,0,0,123,0,0,0,0,0,0,0,0,0,0,0,0,0,123,0,0,0,123,0,0,0,0,0,0,0,0,0,0,0,0,0,123,123,123,123,123,123,123,123,0,0,0,0,123,0,0,123,0,0,123,
123,0,0,0,0,0,0,0,123,0,0,0,0,123,0,0,0,123,123,0,0,0,123,123,0,0,0,123,0,0,0,123,0,0,0,0,0,0,0,0,0,0,0,123,0,0,0,0,0,0,0,0,123,0,0,0,0,123,0,0,123,0,0,123,
123,0,0,0,0,0,0,0,123,0,0,0,0,0,0,0,0,123,123,0,0,0,123,123,0,0,0,123,0,0,0,123,123,123,123,123,123,123,123,123,0,0,0,123,123,0,0,0,0,0,0,123,123,0,0,0,0,0,0,0,123,0,0,123,
123,0,0,0,0,0,0,0,123,123,123,123,0,0,0,0,0,0,0,0,0,0,0,0,0,0,0,123,0,0,0,123,0,0,0,0,0,0,0,0,0,0,0,123,0,0,0,0,0,0,0,0,123,0,0,0,0,0,0,0,0,0,0,123,
123,0,0,0,0,0,0,0,123,0,0,0,0,0,0,0,0,0,0,0,0,0,0,0,0,0,0,123,0,0,0,123,0,0,0,0,0,0,0,0,0,0,0,123,0,0,0,0,0,0,0,0,123,0,0,0,0,0,0,0,0,0,0,123,
123,123,123,123,123,123,0,0,123,0,0,0,0,0,123,0,0,0,0,0,0,0,0,0,0,0,0,123,123,123,0,123,0,0,0,0,0,123,123,0,0,0,0,123,0,0,123,123,123,123,123,123,123,123,123,123,123,123,0,0,0,0,0,123,
123,0,0,0,0,0,0,0,123,0,0,0,0,0,123,0,0,0,0,0,0,123,123,123,123,123,123,123,0,0,0,123,0,0,0,0,0,123,123,0,0,0,0,0,0,0,0,0,0,0,0,0,0,0,0,0,0,123,0,0,0,0,0,123,
123,0,0,0,0,0,0,0,123,0,0,0,0,0,123,0,0,0,0,0,0,0,0,0,0,0,0,123,123,123,123,123,0,0,0,0,0,0,0,0,0,0,0,0,0,0,0,0,0,0,0,0,0,0,0,0,0,123,0,0,0,0,0,123,
123,0,0,123,123,123,123,123,123,0,0,0,0,0,123,0,0,0,0,0,0,0,0,0,0,0,0,0,0,0,0,123,0,0,0,0,0,0,0,0,123,0,0,0,0,0,0,0,0,0,0,0,123,0,0,0,0,123,0,0,0,0,0,123,
123,0,0,0,0,0,0,0,123,0,0,123,123,123,123,0,0,0,0,0,0,0,0,0,0,0,0,0,0,0,0,123,0,0,0,0,0,0,0,0,123,0,0,0,0,0,0,0,0,123,123,123,123,123,0,0,0,123,0,0,0,0,0,123,
123,0,0,0,0,0,0,0,123,0,0,123,0,0,123,0,0,0,0,123,123,123,123,123,123,0,0,0,0,0,0,123,0,0,0,0,0,0,0,0,123,0,0,0,0,0,0,0,0,0,0,0,0,0,0,0,0,0,0,0,0,0,0,123,
123,0,0,0,0,0,0,0,123,0,0,123,0,0,123,0,0,0,0,0,123,0,0,0,0,0,0,0,0,0,0,123,0,0,0,0,123,123,123,123,123,123,123,123,0,0,0,0,0,0,0,0,0,0,0,0,0,0,0,0,0,0,0,123,
123,0,0,0,0,0,0,0,0,0,0,123,0,0,123,0,0,0,0,0,123,0,0,0,0,0,0,0,0,0,0,123,0,0,0,0,0,0,0,0,0,0,0,0,0,0,0,0,0,0,0,0,0,0,0,0,0,0,0,0,0,0,0,123,
123,0,0,0,123,0,0,0,0,0,0,123,0,0,123,0,0,0,0,0,0,0,0,0,0,0,0,0,0,0,0,123,0,0,0,0,0,0,0,0,0,0,0,0,0,0,0,123,123,123,123,123,123,123,0,0,0,0,0,123,0,0,0,123,
123,0,0,0,123,123,0,0,0,0,0,123,0,0,123,0,0,0,0,0,0,0,0,0,0,123,123,123,123,123,123,123,0,0,0,0,0,0,0,0,0,0,0,0,0,0,0,0,0,123,0,0,0,0,0,0,0,0,0,123,0,0,0,123,
123,0,0,0,123,0,0,0,0,0,0,123,0,0,123,0,0,123,123,123,0,0,123,0,0,0,0,0,0,0,0,123,0,0,0,0,0,0,0,0,0,0,0,0,0,0,0,0,0,123,0,0,0,0,0,123,0,0,0,123,123,0,0,123,
123,0,0,0,0,0,0,0,0,0,0,123,0,0,123,0,0,0,123,0,0,0,123,0,0,0,0,0,0,0,0,123,0,0,0,0,0,123,0,0,0,0,0,0,0,0,0,0,0,123,0,0,0,0,0,123,0,0,0,123,0,0,0,123,
123,0,0,0,0,0,0,0,0,0,0,123,0,0,0,0,0,0,0,0,0,0,123,0,0,0,0,0,0,0,0,0,0,0,0,0,0,123,0,0,0,0,0,123,123,123,123,123,123,123,0,0,0,0,0,123,0,0,0,123,0,0,0,123,
123,0,0,0,0,0,0,0,0,0,0,123,0,0,0,0,0,0,0,0,0,0,123,123,123,123,123,123,0,0,0,0,0,0,0,0,0,123,0,0,0,0,0,0,0,0,0,0,0,123,0,0,0,0,0,123,0,0,0,0,0,0,0,123,
123,123,123,123,123,123,123,0,0,0,0,123,123,0,0,0,0,0,0,0,0,0,123,0,0,0,0,123,0,0,0,0,0,0,0,0,0,123,0,0,0,0,0,0,0,0,0,0,0,123,0,0,0,0,0,123,0,0,0,0,0,0,0,123,
123,0,0,0,123,0,0,0,0,0,0,123,0,0,0,0,0,123,123,0,0,0,123,0,0,0,0,123,0,0,123,123,0,0,0,0,0,123,123,123,123,123,0,0,0,0,0,0,0,0,0,0,0,0,0,123,0,0,0,0,0,0,0,123,
123,0,0,0,123,0,0,0,0,0,0,123,0,0,0,0,0,123,123,0,0,0,123,0,0,0,123,123,0,0,123,123,0,0,0,0,0,123,0,0,0,0,0,0,0,123,0,0,0,0,0,0,0,0,0,123,0,0,0,0,0,0,0,123,
123,0,0,0,123,0,0,0,0,0,0,123,0,0,0,0,0,0,0,0,0,0,123,0,0,0,0,0,0,0,0,0,0,0,0,0,0,123,0,0,0,0,0,0,0,123,0,0,0,0,0,0,0,0,0,123,0,0,0,0,0,0,0,123,
123,0,0,123,123,0,0,0,0,0,0,0,0,0,0,123,123,123,0,0,0,0,123,0,0,0,0,0,0,0,0,0,0,0,123,123,123,123,0,0,123,123,0,0,0,123,123,123,123,123,123,123,0,0,0,123,0,0,0,123,123,123,123,123,
123,0,0,0,0,0,0,0,0,0,0,0,0,0,0,123,0,0,0,0,0,0,123,0,0,0,0,0,0,0,0,0,0,0,0,0,0,123,0,0,0,123,0,0,0,123,0,0,0,0,0,0,0,0,0,123,0,0,0,0,0,0,0,123,
123,0,0,0,0,0,0,0,0,0,0,0,0,0,0,123,0,0,0,0,0,0,123,0,0,0,0,0,0,0,0,0,0,0,0,0,0,123,0,0,0,123,0,0,0,123,0,0,0,0,0,0,0,0,0,123,0,0,0,0,0,0,0,123,
123,123,123,123,123,123,123,123,123,123,123,123,123,123,123,123,123,123,123,123,123,123,123,123,123,123,123,123,123,123,123,123,123,123,123,123,123,123,123,123,123,123,123,123,123,123,123,123,123,123,123,123,123,123,123,123,123,123,123,123,123,123,123,123
</data>
 </layer>
 <layer id="3" name="statue" width="64" height="36">
  <data encoding="csv">
0,0,0,0,0,0,0,0,0,0,0,0,0,0,0,0,0,0,0,0,0,0,0,0,0,0,0,0,0,0,0,0,0,0,0,0,0,0,0,0,0,0,0,0,0,0,0,0,0,0,0,0,0,0,0,0,0,0,0,0,0,0,0,0,
0,0,0,0,0,0,0,0,0,0,0,0,0,0,0,0,0,0,0,0,0,0,0,203,0,0,0,0,0,0,0,0,0,0,0,0,0,0,0,0,0,0,0,0,0,0,0,0,0,0,0,0,0,0,0,0,0,0,0,0,0,0,0,0,
0,0,0,0,0,0,0,0,0,0,0,0,0,0,0,0,0,0,0,0,0,0,0,219,0,0,0,0,0,0,0,0,0,0,0,0,0,0,0,0,0,0,203,0,0,0,0,0,0,0,0,0,0,0,0,0,0,0,0,0,0,0,0,0,
0,0,0,0,0,0,0,0,0,0,0,0,0,0,0,0,0,0,0,0,0,0,0,0,0,0,0,0,0,0,0,0,0,0,0,0,0,0,0,0,0,0,219,0,0,0,0,0,0,0,0,0,0,0,0,0,0,0,0,0,0,0,0,0,
0,0,0,0,0,0,0,0,0,0,0,0,0,0,0,0,0,0,0,0,0,0,0,0,0,0,0,0,0,0,0,0,0,0,0,0,0,0,0,0,0,0,0,0,0,0,0,0,0,0,0,0,0,0,0,0,0,0,0,0,0,0,0,0,
0,0,0,0,0,0,0,0,0,0,0,0,0,0,0,0,0,0,0,0,0,0,0,0,0,0,0,0,0,0,0,0,0,0,0,0,0,0,0,0,0,0,0,0,0,0,0,0,0,0,0,0,0,0,0,0,0,0,0,0,0,0,0,0,
0,0,0,0,0,0,0,0,0,0,0,0,0,0,0,0,0,0,0,0,0,0,0,0,0,0,0,0,0,0,0,0,0,0,0,0,0,0,0,0,0,0,0,0,0,0,0,0,0,0,0,0,0,0,0,0,0,0,0,0,0,0,0,0,
0,0,0,0,0,0,0,0,0,0,0,0,0,0,0,0,0,0,0,0,0,0,0,0,0,0,0,0,0,0,0,0,0,0,0,0,0,0,0,0,0,0,0,0,0,0,0,0,0,0,0,0,0,0,0,0,0,0,0,0,0,0,0,0,
0,0,0,0,0,0,0,0,0,0,0,0,0,0,0,0,0,0,0,0,0,0,0,0,0,0,0,0,0,0,0,0,0,0,0,0,0,0,0,0,0,0,0,0,0,0,0,0,0,0,0,0,0,0,0,0,0,0,0,0,0,0,0,0,
0,0,0,0,0,0,0,0,0,0,0,0,0,0,0,0,0,0,0,0,0,0,0,0,0,0,0,0,0,0,0,0,0,0,0,0,0,0,0,0,0,0,0,0,0,0,0,0,0,0,0,0,0,0,0,0,0,0,0,0,0,0,0,0,
0,0,0,0,0,0,0,0,0,0,0,0,0,0,0,0,0,0,0,0,0,0,0,0,0,0,0,0,0,0,0,0,0,0,0,0,0,0,0,0,0,0,0,0,0,0,0,0,0,0,0,0,0,0,0,0,0,0,0,0,0,0,0,0,
0,0,0,0,0,0,0,0,0,0,0,0,0,0,0,0,0,0,0,0,0,0,0,0,0,0,0,0,0,0,0,0,0,0,0,0,0,0,0,0,0,0,0,0,0,0,0,0,0,0,0,0,0,0,0,0,0,0,0,0,0,0,0,0,
0,0,0,0,0,0,0,0,0,0,0,0,0,0,0,0,0,0,0,0,0,0,0,0,0,0,0,0,0,0,0,0,0,0,0,0,0,0,0,0,0,0,0,0,0,0,0,0,0,0,0,0,0,0,0,0,0,0,0,0,0,0,0,0,
0,0,0,0,0,0,0,0,0,0,0,0,0,0,0,0,0,0,0,0,0,0,0,0,0,0,0,0,0,0,0,0,0,0,0,0,0,0,0,0,0,0,0,0,0,0,0,0,0,0,0,0,0,0,0,0,0,0,0,0,0,0,0,0,
0,0,0,0,0,0,0,0,0,0,0,0,0,0,0,0,0,0,0,0,0,0,0,0,0,0,0,0,0,0,0,0,0,0,0,0,0,0,0,0,0,0,0,0,0,0,0,0,0,0,0,0,0,0,0,0,0,0,0,0,0,0,0,0,
0,0,0,0,0,0,0,0,0,0,0,0,0,0,0,0,0,0,0,0,0,0,0,0,0,0,0,0,0,0,0,0,0,0,0,0,0,0,0,0,0,0,0,0,0,0,0,0,0,0,0,0,0,0,0,0,0,0,0,0,0,0,0,0,
0,0,0,0,0,0,0,0,0,0,0,0,0,0,0,0,0,0,0,0,0,0,0,0,0,0,0,0,0,0,0,0,0,0,0,0,0,0,0,0,0,0,0,0,0,0,0,0,0,0,0,0,0,0,0,0,0,0,0,0,0,0,0,0,
0,0,0,0,0,0,0,0,0,0,0,0,0,0,0,0,0,0,0,0,0,0,0,0,0,0,0,0,0,0,0,0,0,0,0,0,0,0,0,0,0,0,0,0,0,0,0,0,0,0,0,0,0,0,0,0,0,0,0,0,0,0,0,0,
0,0,0,0,0,0,0,0,0,0,0,0,0,0,0,0,0,0,0,0,0,0,0,0,0,0,0,0,0,0,0,0,0,0,0,0,0,0,0,0,0,203,0,0,0,0,0,0,0,0,0,0,0,0,0,0,0,0,0,0,0,0,0,0,
0,0,0,0,0,0,0,0,0,0,0,0,0,0,0,0,0,0,0,0,0,0,0,0,0,0,0,0,0,0,0,0,0,0,0,0,0,0,0,0,0,219,0,0,0,0,0,0,0,0,0,0,0,0,0,0,0,0,0,0,0,0,0,0,
0,0,0,0,0,0,0,0,0,0,0,0,0,0,0,0,0,0,0,0,0,0,0,0,0,0,0,0,0,0,0,0,0,0,0,0,0,0,0,0,0,0,0,0,0,0,0,0,0,0,0,0,0,0,0,0,0,0,0,0,0,0,0,0,
0,0,0,0,0,0,0,0,0,0,0,0,0,0,0,0,0,0,0,0,0,0,0,0,0,0,0,0,0,0,0,0,0,0,0,0,0,0,0,0,0,0,0,0,0,0,0,0,0,0,0,0,0,0,0,0,0,0,0,0,0,0,0,0,
0,0,0,0,0,0,0,0,0,0,0,0,0,0,0,0,0,0,0,0,0,0,0,0,0,0,0,0,0,0,0,0,0,0,0,0,0,0,0,0,0,0,0,0,0,0,0,0,0,0,0,0,0,0,0,0,0,0,0,0,0,0,0,0,
0,0,0,0,0,0,0,0,0,0,0,0,0,0,0,0,0,0,0,0,0,0,0,0,0,0,0,0,0,0,0,0,0,0,0,0,0,0,0,0,0,0,0,0,0,0,0,0,0,0,0,0,0,0,0,0,0,0,0,0,0,0,0,0,
0,0,0,0,0,0,0,0,0,0,0,0,0,0,0,0,0,0,0,0,0,0,0,0,0,0,0,0,0,0,0,0,0,0,0,0,0,0,0,0,0,0,0,0,0,0,0,0,0,0,0,0,0,0,0,0,0,0,0,0,0,0,0,0,
0,0,0,0,0,0,0,0,0,0,0,0,0,0,0,0,0,0,0,0,0,0,0,0,0,0,0,0,0,0,0,0,0,0,0,0,0,0,0,0,0,0,0,0,0,0,0,0,0,0,0,0,0,0,0,0,0,0,0,0,0,0,0,0,
0,0,0,0,0,0,0,0,0,0,0,0,0,0,0,0,0,0,0,0,0,0,0,0,0,0,0,0,0,0,0,0,0,0,0,0,0,0,0,0,0,0,0,0,0,0,0,0,0,0,0,0,0,0,0,0,0,0,0,0,0,0,0,0,
0,0,0,0,0,0,0,0,0,0,0,0,0,0,0,0,0,0,0,0,0,0,0,0,0,0,0,0,0,0,0,0,0,0,0,0,0,0,0,0,0,0,0,0,0,0,0,0,0,0,0,0,0,0,0,0,0,0,0,0,0,0,0,0,
0,0,0,0,0,0,0,0,0,0,0,0,0,0,0,0,0,0,0,0,0,0,0,0,0,0,0,0,0,0,0,0,0,0,0,0,0,0,0,0,0,0,0,0,0,0,0,0,0,0,0,0,0,0,0,0,0,0,0,0,0,0,0,0,
0,0,0,0,0,0,0,0,0,0,0,0,0,0,0,0,0,0,0,0,0,0,0,0,0,0,0,0,0,0,0,0,0,0,0,0,0,0,0,0,0,0,0,0,0,0,0,0,0,0,0,0,0,0,0,0,0,0,0,0,0,0,0,0,
0,0,0,203,0,0,0,0,0,0,0,0,0,0,0,0,0,0,0,0,0,0,0,0,0,0,0,0,0,0,0,0,0,0,0,0,0,0,0,0,0,0,0,0,0,0,0,0,0,0,0,0,0,0,0,0,0,0,0,0,0,0,0,0,
0,0,0,219,0,0,0,0,0,0,0,0,0,0,0,0,0,0,0,0,0,0,0,0,0,0,0,0,0,0,0,0,0,0,0,0,0,0,0,0,0,0,0,0,0,0,0,0,0,0,0,0,0,0,0,0,0,0,0,0,0,0,0,0,
0,0,0,0,0,0,0,0,0,0,0,0,0,0,0,0,0,0,0,0,0,0,0,0,0,0,0,0,0,0,0,0,0,0,0,0,0,0,0,0,0,0,0,0,0,0,0,0,0,0,0,0,0,0,0,0,0,0,0,0,0,0,0,0,
0,0,0,0,0,0,0,0,0,0,0,0,0,0,0,0,0,0,0,0,0,0,0,0,0,0,0,0,0,0,0,0,0,0,0,0,0,0,0,0,203,0,0,0,0,0,0,0,0,0,0,0,0,0,0,0,0,0,0,0,0,0,0,0,
0,0,0,0,0,0,0,0,0,0,0,0,0,0,0,0,0,0,0,0,0,0,0,0,0,0,0,0,0,0,0,0,0,0,0,0,0,0,0,0,219,0,0,0,0,0,0,0,0,0,0,0,0,0,0,0,0,0,0,0,0,0,0,0,
0,0,0,0,0,0,0,0,0,0,0,0,0,0,0,0,0,0,0,0,0,0,0,0,0,0,0,0,0,0,0,0,0,0,0,0,0,0,0,0,0,0,0,0,0,0,0,0,0,0,0,0,0,0,0,0,0,0,0,0,0,0,0,0
</data>
 </layer>
 <layer id="4" name="table" width="64" height="36">
  <data encoding="csv">
0,0,0,0,0,0,0,0,0,0,0,0,0,0,0,0,0,0,0,0,0,0,0,0,0,0,0,0,0,0,0,0,0,0,0,0,0,0,0,0,0,0,0,0,0,0,0,0,0,0,0,0,0,0,0,0,0,0,0,0,0,0,0,0,
0,0,0,0,0,0,0,0,0,0,163,164,165,0,0,0,0,0,0,0,0,0,0,0,0,0,0,0,0,0,0,0,0,0,0,0,0,0,0,0,0,0,0,0,0,0,0,0,0,0,0,0,0,0,0,0,0,0,0,0,0,0,0,0,
0,0,0,0,0,0,0,0,0,0,179,180,181,0,0,0,0,0,0,0,0,0,0,0,0,0,0,0,0,0,0,0,0,0,0,0,0,0,0,0,0,0,0,0,0,0,0,0,0,0,0,0,0,0,0,0,0,0,0,0,0,0,0,0,
0,0,0,0,0,0,0,0,0,0,195,196,197,0,0,0,0,0,0,0,0,0,0,0,0,0,0,0,0,0,0,0,0,0,0,0,0,0,0,0,0,0,0,0,0,0,0,0,0,0,0,0,0,0,0,0,0,0,0,0,0,0,0,0,
0,0,0,0,0,0,0,0,0,0,0,0,0,0,0,0,0,0,0,0,0,0,0,0,0,0,0,0,0,0,0,0,0,0,0,0,0,0,0,0,0,0,0,0,0,0,0,0,0,0,0,0,0,0,0,0,0,0,0,0,0,0,0,0,
0,0,0,0,0,0,0,0,0,0,0,0,0,0,0,0,0,0,0,0,0,0,0,0,0,0,0,0,0,0,0,0,0,0,0,0,0,0,0,0,0,0,0,0,0,0,0,0,0,0,0,0,0,0,0,0,0,0,0,0,0,0,0,0,
0,0,0,0,0,0,0,0,0,0,0,0,0,0,0,0,0,0,0,0,0,0,0,0,0,0,0,0,0,0,0,0,0,0,0,0,0,0,0,0,0,0,0,0,0,0,0,0,0,0,0,0,0,0,0,0,0,0,0,0,0,0,0,0,
0,0,0,0,0,0,0,0,0,0,0,0,0,0,0,0,0,0,0,0,0,0,0,0,0,0,0,0,0,0,0,0,0,0,0,0,0,0,0,0,0,0,0,0,0,0,0,0,0,0,0,0,0,0,0,0,0,0,0,0,0,0,0,0,
0,0,0,0,0,0,0,0,0,0,0,0,0,0,0,0,0,0,0,0,0,0,0,0,0,0,0,0,0,0,0,0,0,0,0,0,0,0,0,0,0,0,0,0,0,0,0,0,0,0,0,0,0,0,0,0,0,0,0,0,0,0,0,0,
0,0,0,0,0,0,0,0,0,0,0,0,0,0,0,0,0,0,0,0,0,0,0,0,0,0,0,0,0,0,0,0,0,0,0,0,0,0,0,0,0,0,0,0,0,0,0,0,0,0,0,0,0,0,0,0,0,0,0,0,0,0,0,0,
0,0,0,0,0,0,0,0,0,0,0,0,0,0,0,0,0,0,0,0,0,0,0,0,0,0,0,0,0,0,0,0,0,0,0,0,0,0,0,0,0,0,0,0,0,0,0,0,0,0,0,0,0,0,0,0,0,0,0,0,0,0,0,0,
0,0,0,0,0,0,0,0,0,0,0,0,0,0,0,0,0,0,0,0,0,0,0,0,0,0,0,0,0,0,0,0,0,0,0,0,0,0,0,0,0,0,0,0,0,0,0,0,0,0,0,0,0,0,0,0,0,0,0,0,0,0,0,0,
0,0,0,0,0,0,0,0,0,0,0,0,0,0,0,0,0,0,0,0,0,0,0,0,0,0,0,0,0,0,0,0,0,0,0,0,0,0,0,0,0,0,0,0,0,0,0,0,0,0,0,0,0,0,0,0,0,0,0,0,0,0,0,0,
0,0,0,0,0,0,0,0,0,0,0,0,0,0,0,0,0,0,0,0,0,0,0,0,0,0,0,0,0,0,0,0,0,0,0,0,0,0,0,0,0,0,0,0,0,0,0,0,0,0,0,0,0,0,0,0,0,0,0,0,0,0,0,0,
0,0,0,0,0,0,0,0,0,0,0,0,0,0,0,0,0,0,0,0,0,0,0,0,0,0,0,0,0,0,0,0,0,0,0,0,0,0,0,0,0,0,0,0,0,0,0,0,0,0,0,0,0,0,0,0,0,0,0,0,0,0,0,0,
0,0,0,0,0,0,0,0,0,0,0,0,0,0,0,0,0,0,0,0,0,0,0,0,0,0,0,0,0,0,0,0,0,0,0,0,0,0,0,0,0,0,0,0,0,0,0,0,0,0,0,0,0,0,0,0,0,0,0,0,0,0,0,0,
0,0,0,0,0,0,0,0,0,0,0,0,0,0,0,0,0,0,0,0,0,0,0,0,0,0,0,0,0,0,0,0,0,0,0,0,0,0,0,0,0,0,0,0,0,0,0,0,0,0,0,0,0,0,0,0,0,0,0,0,0,0,0,0,
0,0,0,0,0,0,0,0,0,0,0,0,0,0,0,0,0,0,0,0,0,0,0,0,0,0,0,0,0,0,0,0,0,0,0,0,0,0,0,0,0,0,0,0,0,0,0,0,0,0,0,0,0,0,0,0,0,0,0,0,0,0,0,0,
0,0,0,0,0,0,0,0,0,0,0,0,0,0,0,0,0,0,0,0,0,0,0,0,0,0,0,0,0,0,0,0,0,0,0,0,0,0,0,0,0,0,0,0,0,0,0,0,0,0,0,0,0,0,0,0,0,0,0,0,0,0,0,0,
0,0,0,0,0,0,0,0,0,0,0,0,0,0,0,0,0,0,0,0,0,0,0,0,0,0,0,0,0,0,0,0,0,0,0,0,0,0,0,0,0,0,0,0,0,0,0,0,0,0,0,0,0,0,0,0,0,0,0,0,0,0,0,0,
0,0,0,0,0,0,0,0,0,0,0,0,0,0,0,0,0,0,0,0,0,0,0,0,0,0,0,0,0,0,0,0,0,0,0,0,0,0,0,0,0,0,0,0,0,0,0,0,0,0,0,0,0,0,0,0,0,0,0,0,0,0,0,0,
0,0,0,0,0,0,0,0,0,0,0,0,0,0,0,0,0,0,0,0,0,0,0,0,0,0,0,0,0,0,0,0,0,0,0,0,0,0,0,0,0,0,0,0,0,0,0,0,0,0,0,0,0,0,0,0,0,0,0,0,0,0,0,0,
0,0,0,0,0,0,0,0,0,0,0,0,0,0,0,0,0,0,0,0,0,0,0,0,0,0,0,0,0,0,0,0,0,0,0,0,0,0,0,0,0,0,0,0,0,0,0,0,0,0,0,0,0,0,0,0,0,0,0,0,0,0,0,0,
0,0,0,0,0,0,0,0,0,0,0,0,0,0,0,0,0,0,0,0,0,0,0,0,0,0,0,0,0,0,0,0,0,0,0,0,0,0,0,0,0,0,0,0,0,0,0,0,0,0,0,0,0,0,0,0,0,0,0,0,0,0,0,0,
0,0,0,0,0,0,0,0,0,0,0,0,0,0,0,0,0,0,0,0,0,0,0,0,0,0,0,0,0,0,0,0,0,0,0,0,0,0,0,0,0,0,0,0,0,0,0,0,0,0,0,0,0,0,0,0,0,0,0,0,0,0,0,0,
0,0,0,0,0,0,0,0,0,0,0,0,0,0,0,0,0,0,0,0,0,0,0,0,0,0,0,0,0,0,0,0,0,0,0,0,0,0,0,0,0,0,0,0,0,0,0,0,0,0,0,0,0,0,0,0,0,0,0,0,0,0,0,0,
0,0,0,0,0,0,0,0,0,0,0,0,0,0,0,0,0,0,0,0,0,0,0,0,0,0,0,0,0,0,0,0,0,0,0,0,0,0,0,0,0,0,0,0,0,0,0,0,0,0,0,0,0,0,0,0,0,0,0,0,0,0,0,0,
0,0,0,0,0,0,0,0,0,0,0,0,0,0,0,0,0,0,0,0,0,0,0,0,0,0,0,0,0,0,0,0,0,0,0,0,0,0,0,0,0,0,0,0,0,0,0,0,0,0,0,0,0,0,0,0,0,0,0,0,0,0,0,0,
0,0,0,0,0,0,0,0,0,0,0,0,0,0,0,0,0,0,0,0,0,0,0,0,0,0,0,0,0,0,0,0,0,0,0,0,0,0,0,0,0,0,0,0,0,0,0,0,0,0,0,0,0,0,0,0,0,0,0,0,0,0,0,0,
0,0,0,0,0,0,0,0,0,0,0,0,0,0,0,0,0,0,0,0,0,0,0,0,0,0,0,0,0,0,0,0,0,0,0,0,0,0,0,0,0,0,0,0,0,0,0,0,0,0,0,0,0,0,0,0,0,0,0,0,0,0,0,0,
0,0,0,0,0,0,0,0,0,0,0,0,0,0,0,0,0,0,0,0,0,0,0,0,0,0,0,0,0,0,0,0,0,0,0,0,0,0,0,0,0,0,0,0,0,0,0,0,0,0,0,0,0,0,0,0,0,0,0,0,0,0,0,0,
0,0,0,0,0,0,0,0,0,0,0,0,0,0,0,0,0,0,0,0,0,0,0,0,0,0,0,0,0,0,0,0,0,0,0,0,0,0,0,0,0,0,0,0,0,0,0,0,0,0,0,0,0,0,0,0,0,0,0,0,0,0,0,0,
0,0,0,0,0,0,0,0,0,0,0,0,0,0,0,0,0,0,0,0,0,0,0,0,0,0,0,0,0,0,0,0,0,0,0,0,0,0,0,0,0,0,0,0,0,0,0,0,0,0,0,0,0,0,0,0,0,0,0,0,0,0,0,0,
0,0,0,0,0,0,0,0,0,0,0,0,0,0,0,0,0,0,0,0,0,0,0,0,0,0,0,0,0,0,0,0,0,0,0,0,0,0,0,0,0,0,0,0,0,0,0,0,0,0,0,0,0,0,0,0,0,0,0,0,0,0,0,0,
0,0,0,0,0,0,0,0,0,0,0,0,0,0,0,0,0,0,0,0,0,0,0,0,0,0,0,0,0,0,0,0,0,0,0,0,0,0,0,0,0,0,0,0,0,0,0,0,0,0,0,0,0,0,0,0,0,0,0,0,0,0,0,0,
0,0,0,0,0,0,0,0,0,0,0,0,0,0,0,0,0,0,0,0,0,0,0,0,0,0,0,0,0,0,0,0,0,0,0,0,0,0,0,0,0,0,0,0,0,0,0,0,0,0,0,0,0,0,0,0,0,0,0,0,0,0,0,0
</data>
 </layer>
 <objectgroup id="5" name="objects">
  <object id="1" type="collision" x="0" y="0" width="1280" height="20"/>
  <object id="2" type="collision" x="0" y="20" width="20" height="700"/>
  <object id="3" type="collision" x="20" y="700" width="1260" height="20"/>
  <object id="4" type="collision" x="1260" y="20" width="20" height="680"/>
  <object id="5" type="collision" x="1220" y="60" width="40" height="20"/>
  <object id="6" type="collision" x="1200" y="100" width="20" height="140"/>
  <object id="7" type="collision" x="1140" y="20" width="20" height="200"/>
  <object id="8" type="collision" x="920" y="280" width="220" height="20"/>
  <object id="9" type="collision" x="1040" y="80" width="20" height="200"/>
  <object id="10" type="collision" x="900" y="180" width="140" height="20"/>
  <object id="11" type="collision" x="1020" y="220" width="20" height="20"/>
  <object id="12" type="collision" x="860" y="200" width="20" height="100"/>
  <object id="13" type="collision" x="880" y="220" width="20" height="20"/>
  <object id="14" type="collision" x="620" y="220" width="180" height="20"/>
  <object id="15" type="collision" x="620" y="240" width="20" height="280"/>
  <object id="16" type="collision" x="500" y="460" width="120" height="20"/>
  <object id="17" type="collision" x="620" y="100" width="20" height="120"/>
  <object id="18" type="collision" x="640" y="140" width="200" height="20"/>
  <object id="19" type="collision" x="820" y="20" width="20" height="120"/>
  <object id="20" type="collision" x="840" y="80" width="20" height="20"/>
  <object id="21" type="collision" x="720" y="80" width="100" height="20"/>
  <object id="22" type="collision" x="400" y="60" width="220" height="20"/>
  <object id="23" type="collision" x="480" y="20" width="20" height="40"/>
  <object id="24" type="collision" x="160" y="20" width="20" height="400"/>
  <object id="25" type="collision" x="60" y="340" width="100" height="20"/>
  <object id="26" type="collision" x="20" y="280" width="100" height="20"/>
  <object id="27" type="collision" x="180" y="240" width="60" height="20"/>
  <object id="28" type="collision" x="260" y="20" width="20" height="200"/>
  <object id="29" type="collision" x="220" y="80" width="40" height="20"/>
  <object id="30" type="collision" x="60" y="140" width="60" height="60"/>
  <object id="31" type="collision" x="280" y="280" width="20" height="240"/>
  <object id="32" type="collision" x="80" y="440" width="20" height="60"/>
  <object id="33" type="collision" x="100" y="460" width="20" height="20"/>
  <object id="34" type="collision" x="20" y="560" width="120" height="20"/>
  <object id="35" type="collision" x="60" y="640" width="40" height="20"/>
  <object id="36" type="collision" x="80" y="580" width="20" height="60"/>
  <object id="37" type="collision" x="220" y="360" width="20" height="280"/>
  <object id="38" type="collision" x="240" y="360" width="40" height="20"/>
  <object id="39" type="collision" x="240" y="560" width="20" height="20"/>
  <object id="40" type="collision" x="300" y="640" width="20" height="60"/>
  <object id="41" type="collision" x="320" y="640" width="40" height="20"/>
  <object id="42" type="collision" x="340" y="580" width="40" height="40"/>
  <object id="43" type="collision" x="340" y="480" width="60" height="20"/>
  <object id="44" type="collision" x="360" y="500" width="20" height="20"/>
  <object id="45" type="collision" x="440" y="480" width="20" height="220"/>
  <object id="46" type="collision" x="460" y="540" width="100" height="20"/>
  <object id="47" type="collision" x="540" y="560" width="20" height="60"/>
  <object id="48" type="collision" x="520" y="600" width="20" height="20"/>
  <object id="49" type="collision" x="600" y="580" width="40" height="40"/>
  <object id="50" type="collision" x="680" y="640" width="60" height="20"/>
  <object id="51" type="collision" x="740" y="500" width="20" height="200"/>
  <object id="52" type="collision" x="760" y="580" width="80" height="20"/>
  <object id="53" type="collision" x="820" y="640" width="20" height="60"/>
  <object id="54" type="collision" x="800" y="640" width="20" height="20"/>
  <object id="55" type="collision" x="900" y="600" width="20" height="100"/>
  <object id="56" type="collision" x="920" y="640" width="120" height="20"/>
  <object id="57" type="collision" x="860" y="520" width="120" height="20"/>
  <object id="58" type="collision" x="980" y="460" width="20" height="120"/>
  <object id="59" type="collision" x="940" y="440" width="140" height="20"/>
  <object id="60" type="collision" x="980" y="360" width="100" height="20"/>
  <object id="61" type="collision" x="1040" y="340" width="20" height="20"/>
  <object id="62" type="collision" x="740" y="280" width="40" height="40"/>
  <object id="63" type="collision" x="720" y="400" width="160" height="20"/>
  <object id="64" type="collision" x="800" y="340" width="20" height="60"/>
  <object id="65" type="collision" x="540" y="320" width="80" height="20"/>
  <object id="66" type="collision" x="420" y="300" width="140" height="20"/>
  <object id="67" type="collision" x="540" y="280" width="60" height="20"/>
  <object id="68" type="collision" x="540" y="160" width="20" height="120"/>
  <object id="69" type="collision" x="440" y="200" width="40" height="40"/>
  <object id="70" type="collision" x="340" y="200" width="40" height="40"/>
  <object id="71" type="collision" x="380" y="380" width="120" height="20"/>
  <object id="72" type="collision" x="400" y="400" width="20" height="40"/>
  <object id="73" type="collision" x="1180" y="440" width="20" height="100"/>
  <object id="74" type="collision" x="1200" y="480" width="20" height="20"/>
  <object id="75" type="collision" x="1180" y="640" width="80" height="20"/>
  <object id="76" type="collision" x="280" y="140" width="200" height="20"/>
  <object id="77" type="collision" x="900" y="20" width="20" height="60"/>
  <object id="78" type="collision" x="960" y="80" width="40" height="40"/>
  <object id="79" type="collision" x="1100" y="480" width="20" height="220"/>
  <object id="80" name="point d'apparition" x="87" y="77">
   <point/>
  </object>
  <object id="81" name="statue1" type="statue" x="460" y="20" width="20" height="40">
   <ellipse/>
  </object>
  <object id="82" name="statue2" type="statue" x="60" y="600" width="20" height="40">
   <ellipse/>
  </object>
  <object id="83" name="statue3" type="statue" x="800" y="660" width="20" height="40">
   <ellipse/>
  </object>
  <object id="84" name="statue4" type="statue" x="820" y="360" width="20" height="40">
   <ellipse/>
  </object>
  <object id="85" name="statue5" type="statue" x="840" y="40" width="20" height="40">
   <ellipse/>
  </object>
  <object id="86" name="table" x="200" y="20" width="60" height="60"/>
  <object id="115" type="invisible" x="261.75" y="640" width="39" height="20"/>
  <object id="116" type="invisible" x="39.8182" y="600.364" width="19.8182" height="59.4545"/>
  <object id="119" type="invisible" x="840" y="519.667" width="20.6667" height="80.6667"/>
  <object id="120" type="invisible" x="460" y="99.75" width="20.25" height="40.5"/>
  <object id="121" type="invisible" x="400.5" y="80" width="19" height="39.75"/>
  <object id="122" type="invisible" x="339" y="84.5" width="62.5" height="35.5"/>
  <object id="124" type="poison" x="131.818" y="363.818" width="14.3636" height="34"/>
  <object id="125" type="poison" x="121.636" y="375.273" width="36.7273" height="11.0909"/>
  <object id="126" type="poison" x="126.182" y="368.636" width="26.9091" height="26.9091"/>
  <object id="127" type="poison" x="172.546" y="485" width="14.3636" height="34"/>
  <object id="128" type="poison" x="162.364" y="496.455" width="36.7273" height="11.0909"/>
  <object id="129" type="poison" x="166.91" y="489.818" width="26.9091" height="26.9091"/>
  <object id="130" type="poison" x="157.849" y="562.152" width="44.5454" height="37.6364"/>
  <object id="131" type="poison" x="141.121" y="575.788" width="75.8182" height="11.0909"/>
  <object id="132" type="poison" x="146.213" y="566.97" width="65.2727" height="26.7273"/>
  <object id="133" type="poison" x="331.652" y="303.917" width="14.3636" height="34"/>
  <object id="134" type="poison" x="321.47" y="315.372" width="36.7273" height="11.0909"/>
  <object id="135" type="poison" x="326.016" y="308.735" width="26.9091" height="26.9091"/>
  <object id="136" type="poison" x="231.068" y="124.5" width="14.3636" height="34"/>
  <object id="137" type="poison" x="220.886" y="135.955" width="36.7273" height="11.0909"/>
  <object id="138" type="poison" x="225.432" y="129.318" width="26.9091" height="26.9091"/>
  <object id="139" type="poison" x="312.318" y="83.5" width="14.3636" height="34"/>
  <object id="140" type="poison" x="302.136" y="94.955" width="36.7273" height="11.0909"/>
  <object id="141" type="poison" x="306.682" y="88.318" width="26.9091" height="26.9091"/>
  <object id="142" type="poison" x="690.818" y="64.5" width="14.3636" height="34"/>
  <object id="143" type="poison" x="680.636" y="75.955" width="36.7273" height="11.0909"/>
  <object id="144" type="poison" x="685.182" y="69.318" width="26.9091" height="26.9091"/>
  <object id="145" type="poison" x="852.818" y="103.5" width="14.3636" height="34"/>
  <object id="146" type="poison" x="842.636" y="114.955" width="36.7273" height="11.0909"/>
  <object id="147" type="poison" x="847.182" y="108.318" width="26.9091" height="26.9091"/>
  <object id="148" type="poison" x="932.318" y="83" width="14.3636" height="34"/>
  <object id="149" type="poison" x="922.136" y="94.455" width="36.7273" height="11.0909"/>
  <object id="150" type="poison" x="926.682" y="87.818" width="26.9091" height="26.9091"/>
  <object id="151" type="poison" x="1071.32" y="145" width="14.3636" height="34"/>
  <object id="152" type="poison" x="1061.14" y="156.455" width="36.7273" height="11.0909"/>
  <object id="153" type="poison" x="1065.68" y="149.818" width="26.9091" height="26.9091"/>
  <object id="154" type="poison" x="1111.32" y="43.5" width="14.3636" height="34"/>
  <object id="155" type="poison" x="1101.14" y="54.955" width="36.7273" height="11.0909"/>
  <object id="156" type="poison" x="1105.68" y="48.318" width="26.9091" height="26.9091"/>
  <object id="157" type="poison" x="1191.82" y="63" width="14.3636" height="34"/>
  <object id="158" type="poison" x="1181.64" y="74.455" width="36.7273" height="11.0909"/>
  <object id="159" type="poison" x="1186.18" y="67.818" width="26.9091" height="26.9091"/>
  <object id="160" type="poison" x="1213.32" y="263.833" width="14.3636" height="34"/>
  <object id="161" type="poison" x="1203.14" y="275.288" width="36.7273" height="11.0909"/>
  <object id="162" type="poison" x="1207.68" y="268.651" width="26.9091" height="26.9091"/>
  <object id="163" type="poison" x="1210.32" y="503.5" width="14.3636" height="34"/>
  <object id="164" type="poison" x="1200.14" y="514.955" width="36.7273" height="11.0909"/>
  <object id="165" type="poison" x="1204.68" y="508.318" width="26.9091" height="26.9091"/>
  <object id="166" type="poison" x="1012.82" y="484" width="14.3636" height="34"/>
  <object id="167" type="poison" x="1002.64" y="495.455" width="36.7273" height="11.0909"/>
  <object id="168" type="poison" x="1007.18" y="488.818" width="26.9091" height="26.9091"/>
  <object id="169" type="poison" x="931.318" y="303.5" width="14.3636" height="34"/>
  <object id="170" type="poison" x="921.136" y="314.955" width="36.7273" height="11.0909"/>
  <object id="171" type="poison" x="925.682" y="308.318" width="26.9091" height="26.9091"/>
  <object id="172" type="poison" x="1152.82" y="642" width="14.3636" height="34"/>
  <object id="173" type="poison" x="1142.64" y="653.455" width="36.7273" height="11.0909"/>
  <object id="174" type="poison" x="1147.18" y="646.818" width="26.9091" height="26.9091"/>
  <object id="175" type="poison" x="751.818" y="422" width="14.3636" height="34"/>
  <object id="176" type="poison" x="741.636" y="433.455" width="36.7273" height="11.0909"/>
  <object id="177" type="poison" x="746.182" y="426.818" width="26.9091" height="26.9091"/>
  <object id="178" type="poison" x="590.818" y="385" width="14.3636" height="34"/>
  <object id="179" type="poison" x="580.636" y="396.455" width="36.7273" height="11.0909"/>
  <object id="180" type="poison" x="585.182" y="389.818" width="26.9091" height="26.9091"/>
  <object id="181" type="poison" x="592.318" y="484" width="14.3636" height="34"/>
  <object id="182" type="poison" x="582.136" y="495.455" width="36.7273" height="11.0909"/>
  <object id="183" type="poison" x="586.682" y="488.818" width="26.9091" height="26.9091"/>
  <object id="184" type="poison" x="590.818" y="624" width="14.3636" height="34"/>
  <object id="185" type="poison" x="580.636" y="635.455" width="36.7273" height="11.0909"/>
  <object id="186" type="poison" x="585.182" y="628.818" width="26.9091" height="26.9091"/>
  <object id="187" type="poison" x="652.848" y="263.162" width="75.8281" height="135.343"/>
  <object id="188" type="poison" x="640.97" y="278.109" width="98.7273" height="108.117"/>
  <object id="189" type="poison" x="646.166" y="271.395" width="88.6781" height="119.011"/>
  <object id="190" type="invisible" x="358.875" y="520.75" width="20.25" height="61.5"/>
  <object id="191" type="invisible" x="301.208" y="479.25" width="39.5833" height="19.8333"/>
  <object id="192" type="collision" x="1140.67" y="280.833" width="20" height="99.5"/>
  <object id="193" type="invisible" x="777" y="161.667" width="143.333" height="178.667"/>
 </objectgroup>
</map>
