<?xml version="1.0" encoding="UTF-8"?>
<map version="1.10" tiledversion="1.10.2" orientation="orthogonal" renderorder="right-down" width="64" height="36" tilewidth="20" tileheight="20" infinite="0" nextlayerid="7" nextobjectid="125">
 <tileset firstgid="1" source="viking.tsx"/>
 <layer id="1" name="background" width="64" height="36">
  <data encoding="csv">
100,100,100,100,100,100,100,100,100,100,100,100,100,100,100,100,100,100,100,100,100,100,100,100,100,100,100,100,100,100,100,100,100,100,100,100,100,100,100,100,100,100,100,100,100,100,100,100,100,100,100,100,100,100,100,100,100,100,100,100,100,100,100,100,
100,100,100,100,100,100,100,100,100,100,100,100,100,100,100,100,100,100,100,100,100,100,100,100,100,100,100,100,100,100,100,100,100,100,100,100,100,100,100,100,100,100,100,100,100,100,100,100,100,100,100,100,100,100,100,100,100,100,100,100,100,100,100,100,
100,100,100,100,100,100,100,100,100,100,100,100,100,100,100,100,100,100,100,100,100,100,100,100,100,100,100,100,100,100,100,100,100,100,100,100,100,100,100,100,100,100,100,100,100,100,100,100,100,100,100,100,100,100,100,100,100,100,100,100,100,100,100,100,
100,100,100,100,100,100,100,100,100,100,100,100,100,100,100,100,100,100,100,100,100,100,100,100,100,100,100,100,100,100,100,100,100,100,100,100,100,100,100,100,100,100,100,100,100,100,100,100,100,100,100,100,100,100,100,100,100,100,100,100,100,100,100,100,
100,100,100,100,100,100,100,100,100,100,100,100,100,100,100,100,100,100,100,100,100,100,100,100,100,100,100,100,100,100,100,100,100,100,100,100,100,100,100,100,100,100,100,100,100,100,100,100,100,100,100,100,100,100,100,100,100,100,100,100,100,100,100,100,
100,100,100,100,100,100,100,100,100,100,100,100,100,100,100,100,100,100,100,100,100,100,100,100,100,100,100,100,100,100,100,100,100,100,100,100,100,100,100,100,100,100,100,100,100,100,100,100,100,100,100,100,100,100,100,100,100,100,100,100,100,100,100,100,
100,100,100,100,100,100,100,100,100,100,100,100,100,100,100,100,100,100,100,100,100,100,100,100,100,100,100,100,100,100,100,100,100,100,100,100,100,100,100,100,100,100,100,100,100,100,100,100,100,100,100,100,100,100,100,100,100,100,100,100,100,100,100,100,
100,100,100,100,100,100,100,100,100,100,100,100,100,100,100,100,100,100,100,100,100,100,100,100,100,100,100,100,100,100,100,100,100,100,100,100,100,100,100,100,100,100,100,100,100,100,100,100,100,100,100,100,100,100,100,100,100,100,100,100,100,100,100,100,
100,100,100,100,100,100,100,100,100,100,100,100,100,100,100,100,100,100,100,100,100,100,100,100,100,100,100,100,100,100,100,100,100,100,100,100,100,100,100,100,100,100,100,100,100,100,100,100,100,100,100,100,100,100,100,100,100,100,100,100,100,100,100,100,
100,100,100,100,100,100,100,100,100,100,100,100,100,100,100,100,100,100,100,100,100,100,100,100,100,100,100,100,100,100,100,100,100,100,100,100,100,100,100,100,100,100,100,100,100,100,100,100,100,100,100,100,100,100,100,100,100,100,100,100,100,100,100,100,
100,100,100,100,100,100,100,100,100,100,100,100,100,100,100,100,100,100,100,100,100,100,100,100,100,100,100,100,100,100,100,100,100,100,100,100,100,100,100,100,100,100,100,100,100,100,100,100,100,100,100,100,100,100,100,100,100,100,100,100,100,100,100,100,
100,100,100,100,100,100,100,100,100,100,100,100,100,100,100,100,100,100,100,100,100,100,100,100,100,100,100,100,100,100,100,100,100,100,100,100,100,100,100,100,100,100,100,100,100,100,100,100,100,100,100,100,100,100,100,100,100,100,100,100,100,100,100,100,
100,100,100,100,100,100,100,100,100,100,100,100,100,100,100,100,100,100,100,100,100,100,100,100,100,100,100,100,100,100,100,100,100,100,100,100,100,100,100,100,100,100,100,100,100,100,100,100,100,100,100,100,100,100,100,100,100,100,100,100,100,100,100,100,
100,100,100,100,100,100,100,100,100,100,100,100,100,100,100,100,100,100,100,100,100,100,100,100,100,100,100,100,100,100,100,100,100,100,100,100,100,100,100,100,100,100,100,100,100,100,100,100,100,100,100,100,100,100,100,100,100,100,100,100,100,100,100,100,
100,100,100,100,100,100,100,100,100,100,100,100,100,100,100,100,100,100,100,100,100,100,100,100,100,100,100,100,100,100,100,100,100,100,100,100,100,100,100,100,100,100,100,100,100,100,100,100,100,100,100,100,100,100,100,100,100,100,100,100,100,100,100,100,
100,100,100,100,100,100,100,100,100,100,100,100,100,100,100,100,100,100,100,100,100,100,100,100,100,100,100,100,100,100,100,100,100,100,100,100,100,100,100,100,100,100,100,100,100,100,100,100,100,100,100,100,100,100,100,100,100,100,100,100,100,100,100,100,
100,100,100,100,100,100,100,100,100,100,100,100,100,100,100,100,100,100,100,100,100,100,100,100,100,100,100,100,100,100,100,100,100,100,100,100,100,100,100,100,100,100,100,100,100,100,100,100,100,100,100,100,100,100,100,100,100,100,100,100,100,100,100,100,
100,100,100,100,100,100,100,100,100,100,100,100,100,100,100,100,100,100,100,100,100,100,100,100,100,100,100,100,100,100,100,100,100,100,100,100,100,100,100,100,100,100,100,100,100,100,100,100,100,100,100,100,100,100,100,100,100,100,100,100,100,100,100,100,
100,100,100,100,100,100,100,100,100,100,100,100,100,100,100,100,100,100,100,100,100,100,100,100,100,100,100,100,100,100,100,100,100,100,100,100,100,100,100,100,100,100,100,100,100,100,100,100,100,100,100,100,100,100,100,100,100,100,100,100,100,100,100,100,
100,100,100,100,100,100,100,100,100,100,100,100,100,100,100,100,100,100,100,100,100,100,100,100,100,100,100,100,100,100,100,100,100,100,100,100,100,100,100,100,100,100,100,100,100,100,100,100,100,100,100,100,100,100,100,100,100,100,100,100,100,100,100,100,
100,100,100,100,100,100,100,100,100,100,100,100,100,100,100,100,100,100,100,100,100,100,100,100,100,100,100,100,100,100,100,100,100,100,100,100,100,100,100,100,100,100,100,100,100,100,100,100,100,100,100,100,100,100,100,100,100,100,100,100,100,100,100,100,
100,100,100,100,100,100,100,100,100,100,100,100,100,100,100,100,100,100,100,100,100,100,100,100,100,100,100,100,100,100,100,100,100,100,100,100,100,100,100,100,100,100,100,100,100,100,100,100,100,100,100,100,100,100,100,100,100,100,100,100,100,100,100,100,
100,100,100,100,100,100,100,100,100,100,100,100,100,100,100,100,100,100,100,100,100,100,100,100,100,100,100,100,100,100,100,100,100,100,100,100,100,100,100,100,100,100,100,100,100,100,100,100,100,100,100,100,100,100,100,100,100,100,100,100,100,100,100,100,
100,100,100,100,100,100,100,100,100,100,100,100,100,100,100,100,100,100,100,100,100,100,100,100,100,100,100,100,100,100,100,100,100,100,100,100,100,100,100,100,100,100,100,100,100,100,100,100,100,100,100,100,100,100,100,100,100,100,100,100,100,100,100,100,
100,100,100,100,100,100,100,100,100,100,100,100,100,100,100,100,100,100,100,100,100,100,100,100,100,100,100,100,100,100,100,100,100,100,100,100,100,100,100,100,100,100,100,100,100,100,100,100,100,100,100,100,100,100,100,100,100,100,100,100,100,100,100,100,
100,100,100,100,100,100,100,100,100,100,100,100,100,100,100,100,100,100,100,100,100,100,100,100,100,100,100,100,100,100,100,100,100,100,100,100,100,100,100,100,100,100,100,100,100,100,100,100,100,100,100,100,100,100,100,100,100,100,100,100,100,100,100,100,
100,100,100,100,100,100,100,100,100,100,100,100,100,100,100,100,100,100,100,100,100,100,100,100,100,100,100,100,100,100,100,100,100,100,100,100,100,100,100,100,100,100,100,100,100,100,100,100,100,100,100,100,100,100,100,100,100,100,100,100,100,100,100,100,
100,100,100,100,100,100,100,100,100,100,100,100,100,100,100,100,100,100,100,100,100,100,100,100,100,100,100,100,100,100,100,100,100,100,100,100,100,100,100,100,100,100,100,100,100,100,100,100,100,100,100,100,100,100,100,100,100,100,100,100,100,100,100,100,
100,100,100,100,100,100,100,100,100,100,100,100,100,100,100,100,100,100,100,100,100,100,100,100,100,100,100,100,100,100,100,100,100,100,100,100,100,100,100,100,100,100,100,100,100,100,100,100,100,100,100,100,100,100,100,100,100,100,100,100,100,100,100,100,
100,100,100,100,100,100,100,100,100,100,100,100,100,100,100,100,100,100,100,100,100,100,100,100,100,100,100,100,100,100,100,100,100,100,100,100,100,100,100,100,100,100,100,100,100,100,100,100,100,100,100,100,100,100,100,100,100,100,100,100,100,100,100,100,
100,100,100,100,100,100,100,100,100,100,100,100,100,100,100,100,100,100,100,100,100,100,100,100,100,100,100,100,100,100,100,100,100,100,100,100,100,100,100,100,100,100,100,100,100,100,100,100,100,100,100,100,100,100,100,100,100,100,100,100,100,100,100,100,
100,100,100,100,100,100,100,100,100,100,100,100,100,100,100,100,100,100,100,100,100,100,100,100,100,100,100,100,100,100,100,100,100,100,100,100,100,100,100,100,100,100,100,100,100,100,100,100,100,100,100,100,100,100,100,100,100,100,100,100,100,100,100,100,
100,100,100,100,100,100,100,100,100,100,100,100,100,100,100,100,100,100,100,100,100,100,100,100,100,100,100,100,100,100,100,100,100,100,100,100,100,100,100,100,100,100,100,100,100,100,100,100,100,100,100,100,100,100,100,100,100,100,100,100,100,100,100,100,
100,100,100,100,100,100,100,100,100,100,100,100,100,100,100,100,100,100,100,100,100,100,100,100,100,100,100,100,100,100,100,100,100,100,100,100,100,100,100,100,100,100,100,100,100,100,100,100,100,100,100,100,100,100,100,100,100,100,100,100,100,100,100,100,
100,100,100,100,100,100,100,100,100,100,100,100,100,100,100,100,100,100,100,100,100,100,100,100,100,100,100,100,100,100,100,100,100,100,100,100,100,100,100,100,100,100,100,100,100,100,100,100,100,100,100,100,100,100,100,100,100,100,100,100,100,100,100,100,
100,100,100,100,100,100,100,100,100,100,100,100,100,100,100,100,100,100,100,100,100,100,100,100,100,100,100,100,100,100,100,100,100,100,100,100,100,100,100,100,100,100,100,100,100,100,100,100,100,100,100,100,100,100,100,100,100,100,100,100,100,100,100,100
</data>
 </layer>
 <layer id="3" name="walls" width="64" height="36">
  <data encoding="csv">
2,2,2,2,2,2,2,2,2,2,2,2,2,2,2,2,2,2,2,2,2,2,2,2,2,2,2,2,2,2,2,2,2,2,2,2,2,2,2,2,2,2,2,2,2,2,2,2,2,2,2,2,2,2,2,2,2,2,2,2,2,2,2,2,
2,0,0,0,0,0,2,139,139,139,139,139,139,139,137,2,139,139,139,139,139,139,2,139,139,2,139,137,137,139,139,139,139,2,139,139,139,139,139,139,139,139,139,139,2,139,139,139,139,139,139,139,2,139,139,139,2,139,139,139,139,139,139,2,
2,139,139,0,0,0,2,139,139,139,0,139,139,139,137,2,139,139,139,2,2,2,2,139,139,2,139,139,139,139,139,139,139,139,139,139,139,139,139,0,139,139,139,139,2,2,2,2,139,139,139,139,2,139,139,139,2,139,139,139,139,139,139,2,
2,139,139,0,2,2,2,139,139,139,2,2,2,2,2,2,139,139,139,139,139,139,2,139,139,2,139,139,139,139,139,139,139,139,139,139,139,139,139,2,139,139,139,139,2,139,139,139,139,139,139,139,2,139,139,139,2,2,2,2,2,0,139,2,
2,139,139,139,139,139,0,139,139,139,139,139,139,139,139,2,139,139,139,139,139,139,2,139,139,2,2,2,2,2,2,2,2,2,2,2,2,2,2,2,139,139,139,139,139,139,139,139,139,139,139,139,2,139,139,139,2,139,139,139,139,139,139,2,
2,139,139,139,139,139,139,139,139,139,139,139,139,139,139,2,2,2,2,139,139,139,2,139,139,2,139,139,139,139,139,139,139,139,139,139,2,139,139,139,139,139,139,139,139,139,139,139,139,139,139,139,2,139,139,139,2,139,139,139,139,139,139,2,
2,0,0,2,2,2,2,139,139,139,2,2,139,139,139,2,139,139,139,139,139,139,2,139,139,2,139,139,139,139,139,139,139,139,139,139,2,139,139,139,139,139,139,139,139,139,2,139,139,139,2,2,2,2,2,2,2,139,139,139,139,139,2,2,
2,139,139,139,139,139,2,139,139,139,2,2,139,139,139,2,139,139,139,139,139,139,139,139,139,2,139,139,139,139,139,139,139,139,139,139,2,139,139,139,139,2,2,2,2,2,2,139,139,139,139,139,139,2,139,139,2,139,139,139,139,139,139,2,
2,139,139,139,139,139,2,139,139,139,139,139,139,139,139,2,139,139,139,139,2,139,139,139,139,139,139,139,139,139,139,139,139,139,139,139,139,139,139,139,139,139,139,2,139,139,2,139,139,139,139,139,139,2,139,139,2,139,139,139,139,139,139,2,
2,139,139,139,139,139,2,139,139,139,139,139,139,139,139,2,139,139,139,139,2,139,139,139,139,139,139,139,139,139,139,139,2,2,139,139,139,139,139,139,139,139,139,2,139,139,2,139,139,139,139,139,139,2,139,139,2,139,139,139,139,139,139,2,
2,139,139,139,139,139,2,139,139,139,2,2,2,2,2,2,139,139,139,139,2,139,139,139,139,139,139,2,2,2,139,139,2,2,139,139,139,139,139,139,139,139,139,2,139,139,2,139,139,139,139,139,139,2,139,139,2,139,139,2,2,2,2,2,
2,139,139,139,139,139,2,139,139,139,139,139,139,139,139,2,2,2,2,2,2,2,2,2,2,139,139,139,139,2,139,139,139,139,139,139,2,139,139,139,139,139,139,2,139,139,2,139,139,139,139,139,139,2,139,139,2,139,139,139,139,139,139,2,
2,139,139,139,139,139,2,139,139,139,139,139,139,139,139,2,139,139,139,139,139,139,139,2,139,139,139,139,139,2,139,139,139,139,139,139,2,139,139,139,139,139,139,139,139,139,2,2,2,2,2,139,139,2,139,139,2,139,139,139,139,139,139,2,
2,139,139,139,139,139,2,2,2,139,139,139,139,139,139,2,139,139,139,139,139,139,139,2,139,139,139,139,139,2,139,139,139,139,139,139,2,139,139,139,139,139,139,139,139,139,2,139,139,139,2,139,139,2,139,139,139,139,139,139,139,139,139,2,
2,139,139,139,139,139,2,139,139,139,139,139,2,139,139,139,139,139,139,139,139,139,139,2,139,139,139,139,139,2,139,139,139,139,139,139,2,139,139,139,2,2,139,139,139,139,2,139,139,137,2,139,139,2,139,139,139,139,139,139,139,139,139,2,
2,139,139,139,139,139,2,139,139,139,139,139,2,139,139,139,139,139,139,139,139,139,139,2,2,2,2,139,139,2,2,2,2,2,139,139,2,139,139,139,2,2,139,139,139,139,2,139,139,137,2,139,139,2,139,139,2,2,2,2,2,2,2,2,
2,139,139,139,139,139,2,139,139,139,139,139,2,139,139,139,139,2,139,139,2,2,2,2,139,139,139,139,139,2,139,139,139,139,139,139,2,139,139,139,139,139,139,139,139,139,2,139,139,2,2,139,139,2,139,139,139,139,139,2,139,139,139,2,
2,139,139,139,139,139,2,139,139,2,139,139,2,139,139,139,139,2,139,139,139,139,2,139,139,139,139,139,139,2,139,139,139,139,139,139,2,139,139,139,139,139,139,139,139,139,2,139,139,139,139,139,139,2,139,139,139,139,139,2,139,139,139,2,
2,139,139,139,139,139,2,2,2,2,139,139,2,2,2,139,139,2,139,139,139,139,2,139,139,139,139,139,139,2,139,139,139,139,139,139,2,139,139,139,139,139,139,139,139,139,2,139,139,139,139,139,139,139,139,139,139,139,139,2,139,139,139,2,
2,139,139,139,139,139,2,139,139,139,139,139,2,139,139,139,139,2,139,139,139,139,2,139,139,139,139,139,139,2,139,139,139,139,139,139,2,2,2,2,2,2,2,2,2,2,2,2,2,2,2,139,139,139,139,139,2,2,2,2,139,139,139,2,
2,139,139,139,139,139,2,139,139,139,139,139,2,139,139,139,139,2,139,139,139,139,2,139,139,139,139,139,139,2,139,139,2,2,139,139,2,139,139,139,139,139,139,139,2,139,139,139,139,139,139,139,139,139,139,139,139,139,139,2,139,139,139,2,
2,139,139,139,139,139,2,139,139,139,139,139,2,139,139,2,2,2,139,139,139,139,2,139,139,139,139,139,139,2,139,139,2,2,139,139,2,139,139,139,139,139,139,137,2,139,139,139,139,139,139,139,139,139,139,139,139,139,139,2,139,139,139,2,
2,139,139,139,139,139,2,139,139,139,139,139,139,139,139,139,139,2,139,139,139,139,139,139,139,139,139,139,139,139,139,139,139,139,139,139,2,139,139,139,139,2,139,137,2,139,139,139,139,139,2,139,139,139,139,139,139,139,139,2,139,139,139,2,
2,139,139,139,139,139,2,139,139,139,139,139,139,139,139,139,139,2,139,139,139,139,139,139,139,139,139,139,139,139,139,139,139,139,139,139,2,139,139,139,139,2,2,2,2,139,139,139,139,139,2,139,139,139,2,2,139,139,139,2,2,2,139,2,
2,139,139,139,139,139,2,2,2,2,2,2,2,2,2,2,2,2,2,2,139,139,139,139,139,2,2,2,2,2,139,139,2,2,2,2,2,139,139,139,139,139,139,139,2,139,139,2,2,2,2,139,139,139,2,2,139,139,139,139,139,139,139,2,
2,139,139,139,139,139,2,139,139,139,139,139,139,139,2,139,139,2,139,139,139,139,139,139,139,2,139,139,139,2,139,139,139,139,139,139,2,139,139,139,139,139,139,139,2,139,139,139,139,139,2,139,139,139,139,139,139,139,139,139,139,139,139,2,
2,139,139,139,139,139,2,139,139,139,139,139,139,139,2,139,139,2,139,139,139,139,2,2,2,2,139,139,139,139,139,139,139,139,139,139,139,139,139,2,2,2,139,139,2,139,139,139,139,139,2,139,139,139,139,139,139,139,139,139,139,139,139,2,
2,139,139,139,139,139,2,2,2,2,2,139,139,139,2,139,139,2,139,139,139,139,139,139,139,2,139,139,139,139,139,139,139,139,139,139,139,139,139,2,2,2,139,139,139,139,139,139,139,139,2,139,139,139,139,139,139,139,139,139,139,139,139,2,
2,139,139,139,139,139,2,139,139,139,2,139,139,139,139,139,139,2,139,139,139,139,139,139,139,2,139,139,2,2,2,2,2,2,2,2,2,139,139,139,139,139,139,139,139,139,2,2,2,2,2,139,139,139,2,2,2,2,2,2,2,2,2,2,
2,139,139,139,139,139,2,139,139,139,139,139,139,139,139,139,139,2,139,139,139,139,139,139,139,2,139,139,139,139,139,139,2,139,139,139,139,139,139,139,139,139,139,0,139,139,2,139,139,139,139,139,139,139,139,139,139,139,139,139,139,139,139,2,
2,139,139,139,139,139,2,139,139,139,139,139,139,2,2,2,2,2,2,2,2,2,2,2,2,2,139,139,139,139,139,139,2,139,139,139,139,139,139,139,139,139,139,2,139,139,2,139,139,139,139,139,139,139,139,139,139,139,139,139,122,122,122,2,
2,139,139,139,139,139,2,139,139,139,139,139,139,139,139,139,139,2,139,139,139,139,139,139,139,139,139,139,139,139,139,139,2,2,2,2,2,2,2,2,2,2,2,2,139,139,2,139,139,139,139,139,139,139,139,139,139,139,139,139,122,122,122,2,
2,139,139,139,139,139,2,139,139,2,2,2,139,139,139,139,139,2,139,139,139,139,139,139,139,139,139,139,139,139,139,139,2,139,139,139,139,139,2,139,139,139,139,139,139,139,2,2,2,2,2,2,2,2,2,2,0,0,139,139,122,122,122,2,
2,139,139,139,139,139,2,139,139,0,0,2,139,139,139,139,139,139,139,139,139,139,139,2,2,2,2,139,139,139,2,2,2,139,139,139,139,139,2,139,139,139,139,139,139,139,2,0,0,0,0,0,0,0,0,0,0,0,139,139,122,122,122,122,
2,139,139,139,139,139,2,139,139,139,137,2,139,139,139,139,139,139,139,139,2,139,139,139,2,139,139,139,139,139,139,139,139,139,139,139,139,139,2,139,139,139,139,139,139,139,2,139,139,139,0,0,0,0,0,139,139,139,139,139,122,122,122,122,
2,2,2,2,2,2,2,2,2,2,2,2,2,2,2,2,2,2,2,2,2,2,2,2,2,2,2,2,2,2,2,2,2,2,2,2,2,2,2,2,2,2,2,2,2,2,2,2,2,2,2,2,2,2,2,2,2,2,2,2,2,122,122,122
</data>
 </layer>
 <layer id="4" name="statue" width="64" height="36">
  <data encoding="csv">
0,0,0,0,0,0,0,0,0,0,0,0,0,0,0,0,0,0,0,0,0,0,0,0,0,0,0,0,0,0,0,0,0,0,0,0,0,0,0,0,0,0,0,0,0,0,0,0,0,0,0,0,0,0,0,0,0,0,0,0,0,0,0,0,
0,0,0,0,0,0,0,0,0,0,0,0,0,0,43,0,0,0,0,0,0,0,0,0,0,0,0,0,0,0,0,0,0,0,0,0,0,0,0,0,0,0,0,0,0,0,0,0,0,0,0,0,0,0,0,0,0,43,0,0,0,0,0,0,
0,0,0,0,0,0,0,0,0,0,0,0,0,0,59,0,0,0,0,0,0,0,0,0,0,0,43,0,0,0,0,0,0,0,0,0,0,0,0,0,0,0,0,0,0,0,0,0,0,0,0,0,0,0,0,0,0,59,0,0,0,0,0,0,
0,0,0,0,0,0,0,0,0,0,0,0,0,0,0,0,0,0,0,0,0,0,0,0,0,0,59,0,0,0,0,0,0,0,0,0,0,0,0,0,0,0,0,0,0,0,0,0,0,0,0,0,0,0,0,0,0,0,0,0,0,0,0,0,
0,0,0,0,0,0,0,0,0,0,0,0,0,0,0,0,0,0,0,0,0,0,0,0,0,0,0,0,0,0,0,0,0,0,0,0,0,0,0,0,0,0,0,0,0,0,0,0,0,0,0,0,0,0,0,0,0,0,0,0,0,0,0,0,
0,0,0,0,0,0,0,0,0,0,0,0,0,0,0,0,0,0,0,0,0,0,0,0,0,0,0,0,0,0,0,0,0,0,0,0,0,0,0,0,0,0,0,0,0,0,0,0,0,0,0,0,0,0,0,0,0,0,0,0,0,0,0,0,
0,0,0,0,0,0,0,0,0,0,0,0,0,0,0,0,0,0,0,0,0,0,0,0,0,0,0,0,0,0,0,0,0,0,0,0,0,0,0,0,0,0,0,0,0,0,0,0,0,0,0,0,0,0,0,0,0,0,0,0,0,0,0,0,
0,0,0,0,0,0,0,0,0,0,0,0,0,0,0,0,0,0,0,0,0,0,0,0,0,0,0,0,0,0,0,0,0,0,0,0,0,0,0,0,0,0,0,0,0,0,0,0,0,0,0,0,0,0,0,0,0,0,0,0,0,0,0,0,
0,0,0,0,0,0,0,0,0,0,0,0,0,0,0,0,0,0,0,0,0,0,0,0,0,0,0,0,0,0,0,0,0,0,0,0,0,0,0,0,0,0,0,0,0,0,0,0,0,0,0,0,0,0,0,0,0,0,0,0,0,0,0,0,
0,0,0,0,0,0,0,0,0,0,0,0,0,0,0,0,0,0,0,0,0,0,0,0,0,0,0,0,0,0,0,0,0,0,0,0,0,0,0,0,0,0,0,0,0,0,0,0,0,0,0,0,0,0,0,0,0,0,0,0,0,0,0,0,
0,0,0,0,0,0,0,0,0,0,0,0,0,0,0,0,0,0,0,0,0,0,0,0,0,0,0,0,0,0,0,0,0,0,0,0,0,0,0,0,0,0,0,0,0,0,0,0,0,0,0,0,0,0,0,0,0,0,0,0,0,0,0,0,
0,0,0,0,0,0,0,0,0,0,0,0,0,0,0,0,0,0,0,0,0,0,0,0,0,0,0,0,0,0,0,0,0,0,0,0,0,0,0,0,0,0,0,0,0,0,0,0,0,0,0,0,0,0,0,0,0,0,0,0,0,0,0,0,
0,0,0,0,0,0,0,0,0,0,0,0,0,0,0,0,0,0,0,0,0,0,0,0,0,0,0,0,0,0,0,0,0,0,0,0,0,0,0,0,0,0,0,0,0,0,0,0,0,0,0,0,0,0,0,0,0,0,0,0,0,0,0,0,
0,0,0,0,0,0,0,0,0,0,0,0,0,0,0,0,0,0,0,0,0,0,0,0,0,0,0,0,0,0,0,0,0,0,0,0,0,0,0,0,0,0,0,0,0,0,0,0,0,0,0,0,0,0,0,0,0,0,0,0,0,0,0,0,
0,0,0,0,0,0,0,0,0,0,0,0,0,0,0,0,0,0,0,0,0,0,0,0,0,0,0,0,0,0,0,0,0,0,0,0,0,0,0,0,0,0,0,0,0,0,0,0,0,0,0,0,0,0,0,0,0,0,0,0,0,0,0,0,
0,0,0,0,0,0,0,0,0,0,0,0,0,0,0,0,0,0,0,0,0,0,0,0,0,0,0,0,0,0,0,0,0,0,0,0,0,0,0,0,0,0,0,0,0,0,0,0,0,0,0,0,0,0,0,0,0,0,0,0,0,0,0,0,
0,0,0,0,0,0,0,0,0,0,0,0,0,0,0,0,0,0,0,0,0,0,0,0,0,0,0,0,0,0,0,0,0,0,0,0,0,0,0,0,0,0,0,0,0,0,0,0,0,0,0,0,0,0,0,0,0,0,0,0,0,0,0,0,
0,0,0,0,0,0,0,0,0,0,0,0,0,0,0,0,0,0,0,0,0,0,0,0,0,0,0,0,0,0,0,0,0,0,0,0,0,0,0,0,0,0,0,0,0,0,0,0,0,0,0,0,0,0,0,0,0,0,0,0,0,0,0,0,
0,0,0,0,0,0,0,0,0,0,0,0,0,0,0,0,0,0,0,0,0,0,0,0,0,0,0,0,0,0,0,0,0,0,0,0,0,0,0,0,0,0,0,0,0,0,0,0,0,0,0,0,0,0,0,0,0,0,0,0,0,0,0,0,
0,0,0,0,0,0,0,0,0,0,0,0,0,0,0,0,0,0,0,0,0,0,0,0,0,0,0,0,0,0,0,0,0,0,0,0,0,0,0,0,0,0,0,0,0,0,0,0,0,0,0,0,0,0,0,0,0,0,0,0,0,0,0,0,
0,0,0,0,0,0,0,0,0,0,0,0,0,0,0,0,0,0,0,0,0,0,0,0,0,0,0,0,0,0,0,0,0,0,0,0,0,0,0,0,0,0,0,0,0,0,0,0,0,0,0,0,0,0,0,0,0,0,0,0,0,0,0,0,
0,0,0,0,0,0,0,0,0,0,0,0,0,0,0,0,0,0,0,0,0,0,0,0,0,0,0,0,0,0,0,0,0,0,0,0,0,0,0,0,0,0,0,43,0,0,0,0,0,0,0,0,0,0,0,0,0,0,0,0,0,0,0,0,
0,0,0,0,0,0,0,0,0,0,0,0,0,0,0,0,0,0,0,0,0,0,0,0,0,0,0,0,0,0,0,0,0,0,0,0,0,0,0,0,0,0,0,59,0,0,0,0,0,0,0,0,0,0,0,0,0,0,0,0,0,0,0,0,
0,0,0,0,0,0,0,0,0,0,0,0,0,0,0,0,0,0,0,0,0,0,0,0,0,0,0,0,0,0,0,0,0,0,0,0,0,0,0,0,0,0,0,0,0,0,0,0,0,0,0,0,0,0,0,0,0,0,0,0,0,0,0,0,
0,0,0,0,0,0,0,0,0,0,0,0,0,0,0,0,0,0,0,0,0,0,0,0,0,0,0,0,0,0,0,0,0,0,0,0,0,0,0,0,0,0,0,0,0,0,0,0,0,0,0,0,0,0,0,0,0,0,0,0,0,0,0,0,
0,0,0,0,0,0,0,0,0,0,0,0,0,0,0,0,0,0,0,0,0,0,0,0,0,0,0,0,0,0,0,0,0,0,0,0,0,0,0,0,0,0,0,0,0,0,0,0,0,0,0,0,0,0,0,0,0,0,0,0,0,0,0,0,
0,0,0,0,0,0,0,0,0,0,0,0,0,0,0,0,0,0,0,0,0,0,0,0,0,0,0,0,0,0,0,0,0,0,0,0,0,0,0,0,0,0,0,0,0,0,0,0,0,0,0,0,0,0,0,0,0,0,0,0,0,0,0,0,
0,0,0,0,0,0,0,0,0,0,0,0,0,0,0,0,0,0,0,0,0,0,0,0,0,0,0,0,0,0,0,0,0,0,0,0,0,0,0,0,0,0,0,0,0,0,0,0,0,0,0,0,0,0,0,0,0,0,0,0,0,0,0,0,
0,0,0,0,0,0,0,0,0,0,0,0,0,0,0,0,0,0,0,0,0,0,0,0,0,0,0,0,0,0,0,0,0,0,0,0,0,0,0,0,0,0,0,0,0,0,0,0,0,0,0,0,0,0,0,0,0,0,0,0,0,0,0,0,
0,0,0,0,0,0,0,0,0,0,0,0,0,0,0,0,0,0,0,0,0,0,0,0,0,0,0,0,0,0,0,0,0,0,0,0,0,0,0,0,0,0,0,0,0,0,0,0,0,0,0,0,0,0,0,0,0,0,0,0,0,0,0,0,
0,0,0,0,0,0,0,0,0,0,0,0,0,0,0,0,0,0,0,0,0,0,0,0,0,0,0,0,0,0,0,0,0,0,0,0,0,0,0,0,0,0,0,0,0,0,0,0,0,0,0,0,0,0,0,0,0,0,0,0,0,0,0,0,
0,0,0,0,0,0,0,0,0,0,0,0,0,0,0,0,0,0,0,0,0,0,0,0,0,0,0,0,0,0,0,0,0,0,0,0,0,0,0,0,0,0,0,0,0,0,0,0,0,0,0,0,0,0,0,0,0,0,0,0,0,0,0,0,
0,0,0,0,0,0,0,0,0,0,0,0,0,0,0,0,0,0,0,0,0,0,0,0,0,0,0,0,0,0,0,0,0,0,0,0,0,0,0,0,0,0,0,0,0,0,0,0,0,0,0,0,0,0,0,0,0,0,0,0,0,0,0,0,
0,0,0,0,0,0,0,0,0,0,43,0,0,0,0,0,0,0,0,0,0,0,0,0,0,0,0,0,0,0,0,0,0,0,0,0,0,0,0,0,0,0,0,0,0,0,0,0,0,0,0,0,0,0,0,0,0,0,0,0,0,0,0,0,
0,0,0,0,0,0,0,0,0,0,59,0,0,0,0,0,0,0,0,0,0,0,0,0,0,0,0,0,0,0,0,0,0,0,0,0,0,0,0,0,0,0,0,0,0,0,0,0,0,0,0,0,0,0,0,0,0,0,0,0,0,0,0,0,
0,0,0,0,0,0,0,0,0,0,0,0,0,0,0,0,0,0,0,0,0,0,0,0,0,0,0,0,0,0,0,0,0,0,0,0,0,0,0,0,0,0,0,0,0,0,0,0,0,0,0,0,0,0,0,0,0,0,0,0,0,0,0,0
</data>
 </layer>
 <layer id="5" name="table" width="64" height="36">
  <data encoding="csv">
0,0,0,0,0,0,0,0,0,0,0,0,0,0,0,0,0,0,0,0,0,0,0,0,0,0,0,0,0,0,0,0,0,0,0,0,0,0,0,0,0,0,0,0,0,0,0,0,0,0,0,0,0,0,0,0,0,0,0,0,0,0,0,0,
0,0,0,0,0,0,0,0,0,0,0,0,0,0,0,0,0,0,0,0,0,0,0,0,0,0,0,0,0,0,0,0,0,0,0,0,0,0,0,0,0,0,0,0,0,0,0,0,0,0,0,0,0,0,0,0,0,0,0,0,0,0,0,0,
0,0,0,0,0,0,0,0,0,0,0,0,0,0,0,0,0,0,0,0,0,0,0,0,0,0,0,0,0,0,0,0,0,0,0,0,0,0,0,0,0,0,0,0,0,0,0,0,0,0,0,0,0,0,0,0,0,0,0,0,0,0,0,0,
0,0,0,0,0,0,0,0,0,0,0,0,0,0,0,0,0,0,0,0,0,0,0,0,0,0,0,0,0,0,0,0,0,0,0,0,0,0,0,0,0,0,0,0,0,0,0,0,0,0,0,0,0,0,0,0,0,0,0,0,0,0,0,0,
0,0,0,0,0,0,0,0,0,0,0,0,0,0,0,0,0,0,0,0,0,0,0,0,0,0,0,0,0,0,0,0,0,0,0,0,0,0,0,0,0,0,0,0,0,0,0,0,0,0,0,0,0,0,0,0,0,0,0,0,0,0,0,0,
0,0,0,0,0,0,0,0,0,0,0,0,0,0,0,0,0,0,0,0,0,0,0,0,0,0,0,0,0,0,0,0,0,0,0,0,0,0,0,0,0,0,0,0,0,0,0,0,0,0,0,0,0,0,0,0,0,0,0,0,0,0,0,0,
0,0,0,0,0,0,0,0,0,0,0,0,0,0,0,0,0,0,0,0,0,0,0,0,0,0,0,0,0,0,0,0,0,0,0,0,0,0,0,0,0,0,0,0,0,0,0,0,0,0,0,0,0,0,0,0,0,0,0,0,0,0,0,0,
0,0,0,0,0,0,0,0,0,0,0,0,0,0,0,0,0,0,0,0,0,0,0,0,0,0,0,0,0,0,0,0,0,0,0,0,0,0,0,0,0,0,0,0,0,0,0,0,0,0,0,0,0,0,0,0,0,0,0,0,0,0,0,0,
0,0,0,0,0,0,0,0,0,0,0,0,0,0,0,0,0,0,0,0,0,0,0,0,0,0,0,0,0,0,0,0,0,0,0,0,0,0,0,0,0,0,0,0,0,0,0,0,0,0,0,0,0,0,0,0,0,0,0,0,0,0,0,0,
0,0,0,0,0,0,0,0,0,0,0,0,0,0,0,0,0,0,0,0,0,0,0,0,0,0,0,0,0,0,0,0,0,0,0,0,0,0,0,0,0,0,0,0,0,0,0,0,0,0,0,0,0,0,0,0,0,0,0,0,0,0,0,0,
0,0,0,0,0,0,0,0,0,0,0,0,0,0,0,0,0,0,0,0,0,0,0,0,0,0,0,0,0,0,0,0,0,0,0,0,0,0,0,0,0,0,0,0,0,0,0,0,0,0,0,0,0,0,0,0,0,0,0,0,0,0,0,0,
0,0,0,0,0,0,0,0,0,0,0,0,0,0,0,0,0,0,0,0,0,0,0,0,0,0,0,0,0,0,0,0,0,0,0,0,0,0,0,0,0,0,0,0,0,0,0,0,0,0,0,0,0,0,0,0,0,0,0,0,0,0,0,0,
0,0,0,0,0,0,0,0,0,0,0,0,0,0,0,0,0,0,0,0,0,0,0,0,0,0,0,0,0,0,0,0,0,0,0,0,0,0,0,0,0,0,0,0,0,0,0,0,0,0,0,0,0,0,0,0,0,0,0,0,0,0,0,0,
0,0,0,0,0,0,0,0,0,0,0,0,0,0,0,0,0,0,0,0,0,0,0,0,0,0,0,0,0,0,0,0,0,0,0,0,0,0,0,0,0,0,0,0,0,0,0,0,0,0,0,0,0,0,0,0,0,0,0,0,0,0,0,0,
0,0,0,0,0,0,0,0,0,0,0,0,0,0,0,0,0,0,0,0,0,0,0,0,0,0,0,0,0,0,0,0,0,0,0,0,0,0,0,0,0,0,0,0,0,0,0,0,0,0,0,0,0,0,0,0,0,0,0,0,0,0,0,0,
0,0,0,0,0,0,0,0,0,0,0,0,0,0,0,0,0,0,0,0,0,0,0,0,0,0,0,0,0,0,0,0,0,0,0,0,0,0,0,0,0,0,0,0,0,0,0,0,0,0,0,0,0,0,0,0,0,0,0,0,0,0,0,0,
0,0,0,0,0,0,0,0,0,0,0,0,0,0,0,0,0,0,0,0,0,0,0,0,0,0,0,0,0,0,0,0,0,0,0,0,0,0,0,0,0,0,0,0,0,0,0,0,0,0,0,0,0,0,0,0,0,0,0,0,0,0,0,0,
0,0,0,0,0,0,0,0,0,0,0,0,0,0,0,0,0,0,0,0,0,0,0,0,0,0,0,0,0,0,0,0,0,0,0,0,0,0,0,0,0,0,0,0,0,0,0,0,0,0,0,0,0,0,0,0,0,0,0,0,0,0,0,0,
0,0,0,0,0,0,0,0,0,0,0,0,0,0,0,0,0,0,0,0,0,0,0,0,0,0,0,0,0,0,0,0,0,0,0,0,0,0,0,0,0,0,0,0,0,0,0,0,0,0,0,0,0,0,0,0,0,0,0,0,0,0,0,0,
0,0,0,0,0,0,0,0,0,0,0,0,0,0,0,0,0,0,0,0,0,0,0,0,0,0,0,0,0,0,0,0,0,0,0,0,0,0,0,0,0,0,0,0,0,0,0,0,0,0,0,0,0,0,0,0,0,0,0,0,0,0,0,0,
0,0,0,0,0,0,0,0,0,0,0,0,0,0,0,0,0,0,0,0,0,0,0,0,0,0,0,0,0,0,0,0,0,0,0,0,0,0,0,0,0,0,0,0,0,0,0,0,0,0,0,0,0,0,0,0,0,0,0,0,0,0,0,0,
0,0,0,0,0,0,0,0,0,0,0,0,0,0,0,0,0,0,0,0,0,0,0,0,0,0,0,0,0,0,0,0,0,0,0,0,0,0,0,0,0,0,0,0,0,0,0,0,0,0,0,0,0,0,0,0,0,0,0,0,0,0,0,0,
0,0,0,0,0,0,0,0,0,0,0,0,0,0,0,0,0,0,0,0,0,0,0,0,0,0,0,0,0,0,0,0,0,0,0,0,0,0,0,0,0,0,0,0,0,0,0,0,0,0,0,0,0,0,0,0,0,0,0,0,0,0,0,0,
0,0,0,0,0,0,0,0,0,0,0,0,0,0,0,0,0,0,0,0,0,0,0,0,0,0,0,0,0,0,0,0,0,0,0,0,0,0,0,0,0,0,0,0,0,0,0,0,0,0,0,0,0,0,0,0,0,0,0,0,0,0,0,0,
0,0,0,0,0,0,0,0,0,0,0,0,0,0,0,0,0,0,0,0,0,0,0,0,0,0,0,0,0,0,0,0,0,0,0,0,0,0,0,0,0,0,0,0,0,0,0,0,0,0,0,0,0,0,0,0,0,0,0,0,0,0,0,0,
0,0,0,0,0,0,0,0,0,0,0,0,0,0,0,0,0,0,0,0,0,0,0,0,0,0,0,0,0,0,0,0,0,0,0,0,0,0,0,0,0,0,0,0,0,0,0,0,0,0,0,0,0,0,0,0,0,0,0,0,0,0,0,0,
0,0,0,0,0,0,0,0,0,0,0,0,0,0,0,0,0,0,0,0,0,0,0,0,0,0,0,0,0,0,0,0,0,0,0,0,0,0,0,0,0,0,0,0,0,0,0,0,0,0,0,0,0,0,0,0,0,0,0,0,0,0,0,0,
0,0,0,0,0,0,0,0,0,0,0,0,0,0,0,0,0,0,0,0,0,0,0,0,0,0,0,0,0,0,0,0,0,0,0,0,0,0,0,0,0,0,0,0,0,0,0,0,0,0,0,0,0,0,0,0,0,0,0,0,0,0,0,0,
0,0,0,0,0,0,0,0,0,0,0,0,0,0,0,0,0,0,0,0,0,0,0,0,0,0,0,0,0,0,0,0,0,0,0,0,0,0,0,0,0,0,0,0,0,0,0,0,0,0,0,0,0,0,0,0,0,0,0,0,0,0,0,0,
0,0,0,0,0,0,0,0,0,0,0,0,0,0,0,0,0,0,0,0,0,0,0,0,0,0,0,0,0,0,0,0,0,0,0,0,0,0,0,0,0,0,0,0,0,0,0,0,0,0,0,0,0,0,0,0,0,0,0,0,0,0,0,0,
0,0,0,0,0,0,0,0,0,0,0,0,0,0,0,0,0,0,0,0,0,0,0,0,0,0,0,0,0,0,0,0,0,0,0,0,0,0,0,0,0,0,0,0,0,0,0,0,0,0,0,0,0,0,0,0,0,0,0,0,0,0,0,0,
0,0,0,0,0,0,0,0,0,0,0,0,0,0,0,0,0,0,0,0,0,0,0,0,0,0,0,0,0,0,0,0,0,0,0,0,0,0,0,0,0,0,0,0,0,0,0,0,0,0,0,0,0,0,0,0,0,0,0,0,0,0,0,0,
0,0,0,0,0,0,0,0,0,0,0,0,0,0,0,0,0,0,0,0,0,0,0,0,0,0,0,0,0,0,0,0,0,0,0,0,0,0,0,0,0,0,0,0,0,0,0,0,0,0,0,0,0,0,0,0,0,0,0,0,0,0,0,0,
0,0,0,0,0,0,0,0,0,0,0,0,0,0,0,0,0,0,0,0,0,0,0,0,0,0,0,0,0,0,0,0,0,0,0,0,0,0,0,0,0,0,0,0,0,0,0,0,0,0,0,0,0,0,0,0,0,0,0,0,0,3,4,5,
0,0,0,0,0,0,0,0,0,0,0,0,0,0,0,0,0,0,0,0,0,0,0,0,0,0,0,0,0,0,0,0,0,0,0,0,0,0,0,0,0,0,0,0,0,0,0,0,0,0,0,0,0,0,0,0,0,0,0,0,0,19,20,21,
0,0,0,0,0,0,0,0,0,0,0,0,0,0,0,0,0,0,0,0,0,0,0,0,0,0,0,0,0,0,0,0,0,0,0,0,0,0,0,0,0,0,0,0,0,0,0,0,0,0,0,0,0,0,0,0,0,0,0,0,0,35,36,37
</data>
 </layer>
 <objectgroup id="6" name="objects">
  <object id="1" name="point d'apparition" x="68.6667" y="647.333">
   <point/>
  </object>
  <object id="3" type="collision" x="0" y="-0.5" width="19.5" height="720"/>
  <object id="7" type="collision" x="0" y="-1" width="1282" height="20"/>
  <object id="9" type="collision" x="1260.5" y="18.75" width="19" height="683"/>
  <object id="10" type="collision" x="1120.25" y="19.25" width="20" height="240"/>
  <object id="11" type="collision" x="1040.5" y="19.75" width="19.25" height="101.25"/>
  <object id="12" type="collision" x="1000" y="119.75" width="120.25" height="19.75"/>
  <object id="13" type="collision" x="1060.5" y="138.75" width="19" height="221.125"/>
  <object id="14" type="collision" x="1140" y="60.25" width="79.75" height="19"/>
  <object id="15" type="collision" x="1240" y="119" width="20.75" height="21"/>
  <object id="16" type="collision" x="1180" y="200.25" width="80.5" height="19.5"/>
  <object id="17" type="collision" x="1120.25" y="300.114" width="140.5" height="19.8864"/>
  <object id="18" type="collision" x="1180" y="317.157" width="19.875" height="164.937"/>
  <object id="19" type="collision" x="1199.25" y="460.25" width="40" height="19.5"/>
  <object id="20" type="collision" x="1120" y="380" width="59.5" height="20"/>
  <object id="21" type="collision" x="1080.25" y="560.25" width="180.5" height="19.5"/>
  <object id="22" type="collision" x="20" y="700" width="1259" height="20"/>
  <object id="24" type="collision" x="120" y="120" width="20" height="580"/>
  <object id="26" type="collision" x="60" y="120" width="60" height="20"/>
  <object id="27" type="collision" x="140" y="260" width="40" height="20"/>
  <object id="28" type="collision" x="140" y="360" width="60" height="20"/>
  <object id="29" type="collision" x="180" y="340" width="20" height="20"/>
  <object id="30" type="collision" x="240" y="280" width="20" height="160"/>
  <object id="31" type="collision" x="260" y="360" width="40" height="20"/>
  <object id="32" type="collision" x="140" y="480" width="260" height="20"/>
  <object id="33" type="collision" x="340" y="320" width="20" height="340"/>
  <object id="34" type="collision" x="300" y="420" width="40" height="20"/>
  <object id="35" type="collision" x="280" y="500" width="20" height="60"/>
  <object id="36" type="collision" x="140" y="540" width="80" height="20"/>
  <object id="37" type="collision" x="200" y="560" width="20" height="20"/>
  <object id="38" type="collision" x="220" y="640" width="20" height="60"/>
  <object id="39" type="collision" x="180" y="640" width="40" height="20"/>
  <object id="40" type="collision" x="260" y="600" width="260" height="20"/>
  <object id="41" type="collision" x="500" y="480" width="20" height="120"/>
  <object id="42" type="collision" x="440" y="520" width="60" height="20"/>
  <object id="43" type="collision" x="520" y="480" width="80" height="20"/>
  <object id="44" type="collision" x="580" y="500" width="20" height="20"/>
  <object id="45" type="collision" x="560" y="560" width="180" height="20"/>
  <object id="46" type="collision" x="400" y="680" width="20" height="20"/>
  <object id="47" type="collision" x="480" y="680" width="20" height="20"/>
  <object id="48" type="collision" x="460" y="660" width="80" height="20"/>
  <object id="49" type="collision" x="600" y="660" width="60" height="20"/>
  <object id="50" type="collision" x="640" y="580" width="20" height="80"/>
  <object id="51" type="collision" x="660" y="620" width="220" height="20"/>
  <object id="52" type="collision" x="860" y="600" width="20" height="20"/>
  <object id="53" type="collision" x="760" y="640" width="20" height="60"/>
  <object id="54" type="collision" x="920" y="560" width="20" height="140"/>
  <object id="55" type="collision" x="940" y="560" width="80" height="20"/>
  <object id="56" type="collision" x="1000" y="440" width="20" height="120"/>
  <object id="57" type="collision" x="940" y="480" width="60" height="20"/>
  <object id="58" type="collision" x="940" y="640" width="180" height="20"/>
  <object id="59" type="collision" x="1080" y="460" width="40" height="40"/>
  <object id="60" type="collision" x="780" y="520" width="60" height="40"/>
  <object id="61" type="collision" x="880" y="400" width="20" height="140"/>
  <object id="62" type="collision" x="820" y="460" width="60" height="20"/>
  <object id="63" type="collision" x="820" y="440" width="20" height="20"/>
  <object id="67" type="collision" x="720" y="220" width="20" height="300"/>
  <object id="68" type="collision" x="640" y="480" width="80" height="20"/>
  <object id="69" type="collision" x="640" y="400" width="40" height="40"/>
  <object id="70" type="collision" x="580" y="220" width="20" height="220"/>
  <object id="71" type="collision" x="540" y="200" width="60" height="20"/>
  <object id="72" type="collision" x="120" y="20" width="20" height="60"/>
  <object id="73" type="collision" x="80" y="60" width="40" height="20"/>
  <object id="74" type="collision" x="200" y="120" width="40" height="40"/>
  <object id="75" type="collision" x="200" y="60" width="100" height="20"/>
  <object id="76" type="collision" x="300" y="20" width="20" height="260"/>
  <object id="77" type="collision" x="320" y="100" width="60" height="20"/>
  <object id="78" type="collision" x="200" y="200" width="100" height="20"/>
  <object id="79" type="collision" x="320" y="220" width="180" height="20"/>
  <object id="80" type="collision" x="400" y="160" width="20" height="60"/>
  <object id="81" type="collision" x="440" y="20" width="20" height="120"/>
  <object id="82" type="collision" x="380" y="40" width="60" height="20"/>
  <object id="83" type="collision" x="440" y="320" width="20" height="120"/>
  <object id="84" type="collision" x="400" y="320" width="40" height="20"/>
  <object id="86" type="collision" x="460" y="240" width="20" height="100"/>
  <object id="87" type="collision" x="500" y="20" width="20" height="140"/>
  <object id="88" type="collision" x="520" y="80" width="280" height="20"/>
  <object id="89" type="collision" x="780" y="60" width="20" height="20"/>
  <object id="90" type="collision" x="660" y="20" width="20" height="20"/>
  <object id="91" type="collision" x="880" y="20" width="20" height="60"/>
  <object id="92" type="collision" x="900" y="40" width="60" height="20"/>
  <object id="93" type="collision" x="720" y="100" width="20" height="60"/>
  <object id="94" type="collision" x="640" y="180" width="40" height="40"/>
  <object id="95" type="collision" x="600" y="300" width="80" height="20"/>
  <object id="96" type="collision" x="480" y="300" width="60" height="20"/>
  <object id="97" type="collision" x="800" y="280" width="40" height="40"/>
  <object id="98" type="collision" x="740" y="380" width="280" height="20"/>
  <object id="99" type="collision" x="920" y="120" width="20" height="260"/>
  <object id="100" type="collision" x="980" y="320" width="40" height="20"/>
  <object id="101" type="collision" x="1000" y="240" width="20" height="80"/>
  <object id="102" type="collision" x="940" y="240" width="60" height="20"/>
  <object id="103" type="collision" x="860" y="160" width="20" height="80"/>
  <object id="104" type="collision" x="820" y="140" width="100" height="20"/>
  <object id="111" name="statue1" type="statue" x="280" y="20" width="20" height="40">
   <ellipse/>
  </object>
  <object id="112" name="statue3" type="statue" x="520" y="40" width="20" height="40">
   <ellipse/>
  </object>
  <object id="113" name="statue2" type="statue" x="200" y="660" width="20" height="40">
   <ellipse/>
  </object>
  <object id="114" name="statue4" type="statue" x="860" y="420" width="20" height="40">
   <ellipse/>
  </object>
  <object id="115" name="statue5" type="statue" x="1140" y="20" width="20" height="40">
   <ellipse/>
  </object>
  <object id="116" name="table" x="1221" y="660" width="60" height="60"/>
 </objectgroup>
</map>
