<?xml version="1.0" encoding="UTF-8"?>
<map version="1.10" tiledversion="1.10.2" orientation="orthogonal" renderorder="right-down" width="16" height="16" tilewidth="20" tileheight="20" infinite="0" nextlayerid="3" nextobjectid="17">
 <tileset firstgid="1" source="neige.tsx"/>
 <layer id="1" name="Calque de Tuiles 1" width="16" height="16">
  <data encoding="csv">
145,145,145,145,145,145,145,145,146,146,146,145,146,146,146,146,
145,145,146,146,146,146,146,151,145,145,146,146,145,145,145,146,
145,136,146,146,146,146,146,146,146,146,146,146,146,146,136,146,
146,145,145,12,13,13,13,13,13,13,13,13,14,146,145,146,
146,145,146,28,62,63,63,63,63,63,63,64,30,146,146,146,
146,145,146,28,78,79,79,79,79,79,79,80,30,146,146,145,
146,145,146,28,78,79,79,79,79,79,79,80,30,146,146,145,
146,135,145,28,78,79,79,79,79,79,79,80,30,146,146,145,
146,145,146,28,78,79,79,79,79,79,79,80,30,146,146,145,
146,146,145,28,78,79,79,79,79,79,79,79,30,146,146,145,
146,146,145,28,78,79,79,79,79,79,79,80,30,146,146,135,
146,145,145,28,94,95,95,95,95,95,95,96,30,145,146,145,
146,145,146,44,45,45,45,45,45,45,45,45,46,145,151,146,
145,145,146,146,145,145,145,146,136,146,146,146,146,145,146,146,
145,151,145,146,146,146,146,146,145,146,146,146,146,146,146,146,
145,146,145,145,146,136,146,146,146,145,145,152,145,145,146,146
</data>
 </layer>
 <objectgroup id="2" name="col" class="collision">
  <object id="1" type="collision" x="61" y="40.3333" width="200" height="19.3333"/>
  <object id="2" type="collision" x="260.458" y="40.3333" width="20.3333" height="232.333"/>
  <object id="6" type="collision" x="39.3333" y="41.5002" width="20.3333" height="232.333"/>
  <object id="7" type="collision" x="59.5" y="259.833" width="204.5" height="19.3333"/>
  <object id="8" type="collision" x="255" y="248.333" width="7.18182" height="19.3333"/>
  <object id="9" type="collision" x="249.5" y="255.606" width="7.90909" height="19.3333"/>
  <object id="10" type="collision" x="57.4091" y="248.208" width="7.18182" height="19.3333"/>
  <object id="11" type="collision" x="62.0341" y="255.958" width="7.18182" height="19.3333"/>
  <object id="12" type="collision" x="57.5341" y="52.5834" width="7.18182" height="19.3333"/>
  <object id="13" type="collision" x="62.7841" y="46.2084" width="7.18182" height="19.3333"/>
  <object id="14" type="collision" x="254.409" y="51.4584" width="7.18182" height="19.3333"/>
  <object id="15" type="collision" x="249.159" y="46.9584" width="7.18182" height="19.3333"/>
  <object id="16" name="point d'apparition" x="159.333" y="160">
   <point/>
  </object>
 </objectgroup>
</map>
